(G-CODE GENERATED BY FLATCAM v8.994 - www.flatcam.org - Version Date: 2020/11/7)

(Name: Gerber_TopLayer.GTL_iso_combined_cnc)
(Type: G-code from Geometry)
(Units: MM)

(Created on Sunday, 21 March 2021 at 14:37)


G01 F120.00

M5             
G00 Z15.0000
G00 X0.0000 Y0.0000                
T2
M6
(MSG, Change to Tool Dia = 0.3247)
M0
G00 Z15.0000

M03 S8000.0
G4 P1.0
G01 F120.00
G00 X13.2626 Y4.8017
G01 F60.00
G01 Z-0.4000
G01 F120.00
G01 X13.2442 Y4.7813 F120.00
G01 X13.2367 Y4.7720 F120.00
G01 X13.1550 Y4.6618 F120.00
G01 X13.1462 Y4.6486 F120.00
G01 X13.0718 Y4.5241 F120.00
G01 X13.0096 Y4.3930 F120.00
G01 X13.0035 Y4.3783 F120.00
G01 X12.9548 Y4.2417 F120.00
G01 X12.9176 Y4.0932 F120.00
G01 X12.8952 Y3.9418 F120.00
G01 X12.8878 Y3.7970 F120.00
G01 X12.8878 Y3.7810 F120.00
G01 X12.8952 Y3.6362 F120.00
G01 X12.9176 Y3.4848 F120.00
G01 X12.9548 Y3.3363 F120.00
G01 X13.0063 Y3.1923 F120.00
G01 X13.0718 Y3.0539 F120.00
G01 X13.1504 Y2.9227 F120.00
G01 X13.2416 Y2.7998 F120.00
G01 X13.3389 Y2.6921 F120.00
G01 X13.3501 Y2.6809 F120.00
G01 X13.4578 Y2.5836 F120.00
G01 X13.5807 Y2.4924 F120.00
G01 X13.7119 Y2.4138 F120.00
G01 X13.8503 Y2.3483 F120.00
G01 X13.9943 Y2.2968 F120.00
G01 X14.1428 Y2.2596 F120.00
G01 X14.2942 Y2.2372 F120.00
G01 X14.4470 Y2.2297 F120.00
G01 X14.5998 Y2.2372 F120.00
G01 X14.7512 Y2.2596 F120.00
G01 X14.8997 Y2.2968 F120.00
G01 X15.0437 Y2.3483 F120.00
G01 X15.1821 Y2.4138 F120.00
G01 X15.3133 Y2.4924 F120.00
G01 X15.4362 Y2.5836 F120.00
G01 X15.5468 Y2.6836 F120.00
G01 X15.5551 Y2.6921 F120.00
G01 X15.6524 Y2.7998 F120.00
G01 X15.7436 Y2.9227 F120.00
G01 X15.8222 Y3.0539 F120.00
G01 X15.8844 Y3.1850 F120.00
G01 X15.8905 Y3.1997 F120.00
G01 X15.9367 Y3.3288 F120.00
G01 X15.9413 Y3.3440 F120.00
G01 X15.9764 Y3.4848 F120.00
G01 X15.9979 Y3.6282 F120.00
G01 X15.9994 Y3.6441 F120.00
G01 X16.0063 Y3.7890 F120.00
G01 X15.9992 Y3.9379 F120.00
G01 X15.9979 Y3.9498 F120.00
G01 X15.9764 Y4.0932 F120.00
G01 X15.9392 Y4.2417 F120.00
G01 X15.8877 Y4.3857 F120.00
G01 X15.8241 Y4.5205 F120.00
G01 X15.8183 Y4.5310 F120.00
G01 X15.7478 Y4.6486 F120.00
G01 X15.7413 Y4.6586 F120.00
G01 X15.6547 Y4.7753 F120.00
G01 X15.6275 Y4.8070 F120.00
G01 X15.1096 Y5.7329 F120.00
G01 X15.1096 Y9.7275 F120.00
G01 X24.2775 Y18.8954 F120.00
G01 X27.1270 Y18.8954 F120.00
G01 X27.1879 Y18.8986 F120.00
G01 X27.2522 Y18.9081 F120.00
G01 X27.3153 Y18.9239 F120.00
G01 X27.3691 Y18.9429 F120.00
G01 X27.3802 Y18.9474 F120.00
G01 X27.4353 Y18.9736 F120.00
G01 X27.4910 Y19.0070 F120.00
G01 X27.5433 Y19.0457 F120.00
G01 X27.5886 Y19.0866 F120.00
G01 X29.4572 Y20.9545 F120.00
G01 X30.0768 Y21.2486 F120.00
G01 X30.0938 Y21.2502 F120.00
G01 X30.1988 Y21.2660 F120.00
G01 X30.3094 Y21.2937 F120.00
G01 X30.4168 Y21.3321 F120.00
G01 X30.5199 Y21.3809 F120.00
G01 X30.6110 Y21.4353 F120.00
G01 X30.6243 Y21.4441 F120.00
G01 X30.7094 Y21.5075 F120.00
G01 X30.7881 Y21.5786 F120.00
G01 X30.7994 Y21.5899 F120.00
G01 X30.8705 Y21.6686 F120.00
G01 X30.9339 Y21.7537 F120.00
G01 X30.9406 Y21.7636 F120.00
G01 X30.9971 Y21.8581 F120.00
G01 X31.0426 Y21.9539 F120.00
G01 X31.0487 Y21.9686 F120.00
G01 X31.0818 Y22.0610 F120.00
G01 X31.0864 Y22.0763 F120.00
G01 X31.1120 Y22.1792 F120.00
G01 X31.1288 Y22.2921 F120.00
G01 X31.1343 Y22.4060 F120.00
G01 X31.1293 Y22.5120 F120.00
G01 X31.1278 Y22.5278 F120.00
G01 X31.1134 Y22.6249 F120.00
G01 X31.1103 Y22.6405 F120.00
G01 X31.0843 Y22.7434 F120.00
G01 X31.0459 Y22.8508 F120.00
G01 X31.0007 Y22.9468 F120.00
G01 X30.9932 Y22.9609 F120.00
G01 X30.9385 Y23.0518 F120.00
G01 X30.8705 Y23.1434 F120.00
G01 X30.7939 Y23.2279 F120.00
G01 X30.7094 Y23.3045 F120.00
G01 X30.6178 Y23.3725 F120.00
G01 X30.5269 Y23.4272 F120.00
G01 X30.5164 Y23.4329 F120.00
G01 X30.4168 Y23.4799 F120.00
G01 X30.3094 Y23.5183 F120.00
G01 X30.1988 Y23.5460 F120.00
G01 X30.0938 Y23.5618 F120.00
G01 X30.0764 Y23.5635 F120.00
G01 X29.4597 Y23.8554 F120.00
G01 X28.1824 Y25.1327 F120.00
G01 X28.4667 Y25.8374 F120.00
G01 X28.4752 Y25.8515 F120.00
G01 X28.4788 Y25.8586 F120.00
G01 X28.4835 Y25.8696 F120.00
G01 X28.4874 Y25.8809 F120.00
G01 X28.4904 Y25.8924 F120.00
G01 X28.4926 Y25.9042 F120.00
G01 X28.4939 Y25.9161 F120.00
G01 X28.4943 Y25.9280 F120.00
G01 X28.4943 Y28.4320 F120.00
G01 X28.4936 Y28.4439 F120.00
G01 X28.4926 Y28.4518 F120.00
G01 X28.4912 Y28.4597 F120.00
G01 X28.4885 Y28.4713 F120.00
G01 X28.4849 Y28.4827 F120.00
G01 X28.4820 Y28.4901 F120.00
G01 X28.4788 Y28.4974 F120.00
G01 X28.4733 Y28.5080 F120.00
G01 X28.4692 Y28.5149 F120.00
G01 X28.4624 Y28.5247 F120.00
G01 X28.4549 Y28.5340 F120.00
G01 X28.4496 Y28.5399 F120.00
G01 X28.4439 Y28.5456 F120.00
G01 X28.4350 Y28.5535 F120.00
G01 X28.4287 Y28.5584 F120.00
G01 X28.4189 Y28.5652 F120.00
G01 X28.4085 Y28.5712 F120.00
G01 X28.4014 Y28.5748 F120.00
G01 X28.3904 Y28.5795 F120.00
G01 X28.3791 Y28.5834 F120.00
G01 X28.3676 Y28.5864 F120.00
G01 X28.3558 Y28.5886 F120.00
G01 X28.3439 Y28.5899 F120.00
G01 X28.3360 Y28.5903 F120.00
G01 X26.5280 Y28.5903 F120.00
G01 X26.5201 Y28.5899 F120.00
G01 X26.5082 Y28.5886 F120.00
G01 X26.4926 Y28.5855 F120.00
G01 X26.4849 Y28.5834 F120.00
G01 X26.4736 Y28.5795 F120.00
G01 X26.4590 Y28.5730 F120.00
G01 X26.4520 Y28.5693 F120.00
G01 X26.4418 Y28.5630 F120.00
G01 X26.4290 Y28.5535 F120.00
G01 X26.4172 Y28.5428 F120.00
G01 X26.4091 Y28.5340 F120.00
G01 X26.4040 Y28.5279 F120.00
G01 X26.3970 Y28.5182 F120.00
G01 X26.3888 Y28.5045 F120.00
G01 X26.3836 Y28.4938 F120.00
G01 X26.3791 Y28.4827 F120.00
G01 X26.3755 Y28.4713 F120.00
G01 X26.3728 Y28.4597 F120.00
G01 X26.3704 Y28.4439 F120.00
G01 X26.3697 Y28.4320 F120.00
G01 X26.3697 Y25.9240 F120.00
G01 X26.3704 Y25.9121 F120.00
G01 X26.3728 Y25.8963 F120.00
G01 X26.3755 Y25.8847 F120.00
G01 X26.3805 Y25.8696 F120.00
G01 X26.3836 Y25.8622 F120.00
G01 X26.3880 Y25.8531 F120.00
G01 X26.7720 Y24.9085 F120.00
G01 X26.7732 Y24.8840 F120.00
G01 X26.7740 Y24.8761 F120.00
G01 X26.7818 Y24.8236 F120.00
G01 X26.7840 Y24.8118 F120.00
G01 X26.7989 Y24.7527 F120.00
G01 X26.8194 Y24.6951 F120.00
G01 X26.8241 Y24.6841 F120.00
G01 X26.8486 Y24.6327 F120.00
G01 X26.8778 Y24.5836 F120.00
G01 X26.8843 Y24.5736 F120.00
G01 X26.9208 Y24.5247 F120.00
G01 X26.9645 Y24.4765 F120.00
G01 X28.5204 Y22.9200 F120.00
G01 X28.7646 Y22.4055 F120.00
G01 X28.5211 Y21.8925 F120.00
G01 X26.8486 Y20.2206 F120.00
G01 X23.9950 Y20.2204 F120.00
G01 X23.9381 Y20.2174 F120.00
G01 X23.8737 Y20.2079 F120.00
G01 X23.8107 Y20.1921 F120.00
G01 X23.7569 Y20.1730 F120.00
G01 X23.7421 Y20.1669 F120.00
G01 X23.6978 Y20.1459 F120.00
G01 X23.6837 Y20.1384 F120.00
G01 X23.6349 Y20.1089 F120.00
G01 X23.5858 Y20.0727 F120.00
G01 X23.5766 Y20.0650 F120.00
G01 X23.5345 Y20.0265 F120.00
G01 X13.9785 Y10.4705 F120.00
G01 X13.9400 Y10.4284 F120.00
G01 X13.9299 Y10.4161 F120.00
G01 X13.9007 Y10.3766 F120.00
G01 X13.8918 Y10.3634 F120.00
G01 X13.8626 Y10.3143 F120.00
G01 X13.8381 Y10.2629 F120.00
G01 X13.8320 Y10.2481 F120.00
G01 X13.8129 Y10.1943 F120.00
G01 X13.7971 Y10.1313 F120.00
G01 X13.7876 Y10.0669 F120.00
G01 X13.7844 Y10.0060 F120.00
G01 X13.7844 Y5.7329 F120.00
G01 X13.2626 Y4.8017 F120.00
G00 Z2.0000
G00 X13.2870 Y4.8453
G01 F60.00
G01 Z-0.4000
G01 F120.00
G01 X13.2626 Y4.8017 F120.00
G01 X13.2442 Y4.7813 F120.00
G01 X13.2367 Y4.7720 F120.00
G01 X13.2304 Y4.7635 F120.00
G01 X13.2367 Y4.7720 F120.00
G01 X13.2442 Y4.7813 F120.00
G01 X13.2626 Y4.8017 F120.00
G00 X13.2626 Y4.8017
G01 F60.00
G01 Z-0.4193
G01 F120.00
G01 X13.2442 Y4.7813 F120.00
G01 X13.2367 Y4.7720 F120.00
G01 X13.1550 Y4.6618 F120.00
G01 X13.1462 Y4.6486 F120.00
G01 X13.0718 Y4.5241 F120.00
G01 X13.0096 Y4.3930 F120.00
G01 X13.0035 Y4.3783 F120.00
G01 X12.9548 Y4.2417 F120.00
G01 X12.9176 Y4.0932 F120.00
G01 X12.8952 Y3.9418 F120.00
G01 X12.8878 Y3.7970 F120.00
G01 X12.8878 Y3.7810 F120.00
G01 X12.8952 Y3.6362 F120.00
G01 X12.9176 Y3.4848 F120.00
G01 X12.9548 Y3.3363 F120.00
G01 X13.0063 Y3.1923 F120.00
G01 X13.0718 Y3.0539 F120.00
G01 X13.1504 Y2.9227 F120.00
G01 X13.2416 Y2.7998 F120.00
G01 X13.3389 Y2.6921 F120.00
G01 X13.3501 Y2.6809 F120.00
G01 X13.4578 Y2.5836 F120.00
G01 X13.5807 Y2.4924 F120.00
G01 X13.7119 Y2.4138 F120.00
G01 X13.8503 Y2.3483 F120.00
G01 X13.9943 Y2.2968 F120.00
G01 X14.1428 Y2.2596 F120.00
G01 X14.2942 Y2.2372 F120.00
G01 X14.4470 Y2.2297 F120.00
G01 X14.5998 Y2.2372 F120.00
G01 X14.7512 Y2.2596 F120.00
G01 X14.8997 Y2.2968 F120.00
G01 X15.0437 Y2.3483 F120.00
G01 X15.1821 Y2.4138 F120.00
G01 X15.3133 Y2.4924 F120.00
G01 X15.4362 Y2.5836 F120.00
G01 X15.5468 Y2.6836 F120.00
G01 X15.5551 Y2.6921 F120.00
G01 X15.6524 Y2.7998 F120.00
G01 X15.7436 Y2.9227 F120.00
G01 X15.8222 Y3.0539 F120.00
G01 X15.8844 Y3.1850 F120.00
G01 X15.8905 Y3.1997 F120.00
G01 X15.9367 Y3.3288 F120.00
G01 X15.9413 Y3.3440 F120.00
G01 X15.9764 Y3.4848 F120.00
G01 X15.9979 Y3.6282 F120.00
G01 X15.9994 Y3.6441 F120.00
G01 X16.0063 Y3.7890 F120.00
G01 X15.9992 Y3.9379 F120.00
G01 X15.9979 Y3.9498 F120.00
G01 X15.9764 Y4.0932 F120.00
G01 X15.9392 Y4.2417 F120.00
G01 X15.8877 Y4.3857 F120.00
G01 X15.8241 Y4.5205 F120.00
G01 X15.8183 Y4.5310 F120.00
G01 X15.7478 Y4.6486 F120.00
G01 X15.7413 Y4.6586 F120.00
G01 X15.6547 Y4.7753 F120.00
G01 X15.6275 Y4.8070 F120.00
G01 X15.1096 Y5.7329 F120.00
G01 X15.1096 Y9.7275 F120.00
G01 X24.2775 Y18.8954 F120.00
G01 X27.1270 Y18.8954 F120.00
G01 X27.1879 Y18.8986 F120.00
G01 X27.2522 Y18.9081 F120.00
G01 X27.3153 Y18.9239 F120.00
G01 X27.3691 Y18.9429 F120.00
G01 X27.3802 Y18.9474 F120.00
G01 X27.4353 Y18.9736 F120.00
G01 X27.4910 Y19.0070 F120.00
G01 X27.5433 Y19.0457 F120.00
G01 X27.5886 Y19.0866 F120.00
G01 X29.4572 Y20.9545 F120.00
G01 X30.0768 Y21.2486 F120.00
G01 X30.0938 Y21.2502 F120.00
G01 X30.1988 Y21.2660 F120.00
G01 X30.3094 Y21.2937 F120.00
G01 X30.4168 Y21.3321 F120.00
G01 X30.5199 Y21.3809 F120.00
G01 X30.6110 Y21.4353 F120.00
G01 X30.6243 Y21.4441 F120.00
G01 X30.7094 Y21.5075 F120.00
G01 X30.7881 Y21.5786 F120.00
G01 X30.7994 Y21.5899 F120.00
G01 X30.8705 Y21.6686 F120.00
G01 X30.9339 Y21.7537 F120.00
G01 X30.9406 Y21.7636 F120.00
G01 X30.9971 Y21.8581 F120.00
G01 X31.0426 Y21.9539 F120.00
G01 X31.0487 Y21.9686 F120.00
G01 X31.0818 Y22.0610 F120.00
G01 X31.0864 Y22.0763 F120.00
G01 X31.1120 Y22.1792 F120.00
G01 X31.1288 Y22.2921 F120.00
G01 X31.1343 Y22.4060 F120.00
G01 X31.1293 Y22.5120 F120.00
G01 X31.1278 Y22.5278 F120.00
G01 X31.1134 Y22.6249 F120.00
G01 X31.1103 Y22.6405 F120.00
G01 X31.0843 Y22.7434 F120.00
G01 X31.0459 Y22.8508 F120.00
G01 X31.0007 Y22.9468 F120.00
G01 X30.9932 Y22.9609 F120.00
G01 X30.9385 Y23.0518 F120.00
G01 X30.8705 Y23.1434 F120.00
G01 X30.7939 Y23.2279 F120.00
G01 X30.7094 Y23.3045 F120.00
G01 X30.6178 Y23.3725 F120.00
G01 X30.5269 Y23.4272 F120.00
G01 X30.5164 Y23.4329 F120.00
G01 X30.4168 Y23.4799 F120.00
G01 X30.3094 Y23.5183 F120.00
G01 X30.1988 Y23.5460 F120.00
G01 X30.0938 Y23.5618 F120.00
G01 X30.0764 Y23.5635 F120.00
G01 X29.4597 Y23.8554 F120.00
G01 X28.1824 Y25.1327 F120.00
G01 X28.4667 Y25.8374 F120.00
G01 X28.4752 Y25.8515 F120.00
G01 X28.4788 Y25.8586 F120.00
G01 X28.4835 Y25.8696 F120.00
G01 X28.4874 Y25.8809 F120.00
G01 X28.4904 Y25.8924 F120.00
G01 X28.4926 Y25.9042 F120.00
G01 X28.4939 Y25.9161 F120.00
G01 X28.4943 Y25.9280 F120.00
G01 X28.4943 Y28.4320 F120.00
G01 X28.4936 Y28.4439 F120.00
G01 X28.4926 Y28.4518 F120.00
G01 X28.4912 Y28.4597 F120.00
G01 X28.4885 Y28.4713 F120.00
G01 X28.4849 Y28.4827 F120.00
G01 X28.4820 Y28.4901 F120.00
G01 X28.4788 Y28.4974 F120.00
G01 X28.4733 Y28.5080 F120.00
G01 X28.4692 Y28.5149 F120.00
G01 X28.4624 Y28.5247 F120.00
G01 X28.4549 Y28.5340 F120.00
G01 X28.4496 Y28.5399 F120.00
G01 X28.4439 Y28.5456 F120.00
G01 X28.4350 Y28.5535 F120.00
G01 X28.4287 Y28.5584 F120.00
G01 X28.4189 Y28.5652 F120.00
G01 X28.4085 Y28.5712 F120.00
G01 X28.4014 Y28.5748 F120.00
G01 X28.3904 Y28.5795 F120.00
G01 X28.3791 Y28.5834 F120.00
G01 X28.3676 Y28.5864 F120.00
G01 X28.3558 Y28.5886 F120.00
G01 X28.3439 Y28.5899 F120.00
G01 X28.3360 Y28.5903 F120.00
G01 X26.5280 Y28.5903 F120.00
G01 X26.5201 Y28.5899 F120.00
G01 X26.5082 Y28.5886 F120.00
G01 X26.4926 Y28.5855 F120.00
G01 X26.4849 Y28.5834 F120.00
G01 X26.4736 Y28.5795 F120.00
G01 X26.4590 Y28.5730 F120.00
G01 X26.4520 Y28.5693 F120.00
G01 X26.4418 Y28.5630 F120.00
G01 X26.4290 Y28.5535 F120.00
G01 X26.4172 Y28.5428 F120.00
G01 X26.4091 Y28.5340 F120.00
G01 X26.4040 Y28.5279 F120.00
G01 X26.3970 Y28.5182 F120.00
G01 X26.3888 Y28.5045 F120.00
G01 X26.3836 Y28.4938 F120.00
G01 X26.3791 Y28.4827 F120.00
G01 X26.3755 Y28.4713 F120.00
G01 X26.3728 Y28.4597 F120.00
G01 X26.3704 Y28.4439 F120.00
G01 X26.3697 Y28.4320 F120.00
G01 X26.3697 Y25.9240 F120.00
G01 X26.3704 Y25.9121 F120.00
G01 X26.3728 Y25.8963 F120.00
G01 X26.3755 Y25.8847 F120.00
G01 X26.3805 Y25.8696 F120.00
G01 X26.3836 Y25.8622 F120.00
G01 X26.3880 Y25.8531 F120.00
G01 X26.7720 Y24.9085 F120.00
G01 X26.7732 Y24.8840 F120.00
G01 X26.7740 Y24.8761 F120.00
G01 X26.7818 Y24.8236 F120.00
G01 X26.7840 Y24.8118 F120.00
G01 X26.7989 Y24.7527 F120.00
G01 X26.8194 Y24.6951 F120.00
G01 X26.8241 Y24.6841 F120.00
G01 X26.8486 Y24.6327 F120.00
G01 X26.8778 Y24.5836 F120.00
G01 X26.8843 Y24.5736 F120.00
G01 X26.9208 Y24.5247 F120.00
G01 X26.9645 Y24.4765 F120.00
G01 X28.5204 Y22.9200 F120.00
G01 X28.7646 Y22.4055 F120.00
G01 X28.5211 Y21.8925 F120.00
G01 X26.8486 Y20.2206 F120.00
G01 X23.9950 Y20.2204 F120.00
G01 X23.9381 Y20.2174 F120.00
G01 X23.8737 Y20.2079 F120.00
G01 X23.8107 Y20.1921 F120.00
G01 X23.7569 Y20.1730 F120.00
G01 X23.7421 Y20.1669 F120.00
G01 X23.6978 Y20.1459 F120.00
G01 X23.6837 Y20.1384 F120.00
G01 X23.6349 Y20.1089 F120.00
G01 X23.5858 Y20.0727 F120.00
G01 X23.5766 Y20.0650 F120.00
G01 X23.5345 Y20.0265 F120.00
G01 X13.9785 Y10.4705 F120.00
G01 X13.9400 Y10.4284 F120.00
G01 X13.9299 Y10.4161 F120.00
G01 X13.9007 Y10.3766 F120.00
G01 X13.8918 Y10.3634 F120.00
G01 X13.8626 Y10.3143 F120.00
G01 X13.8381 Y10.2629 F120.00
G01 X13.8320 Y10.2481 F120.00
G01 X13.8129 Y10.1943 F120.00
G01 X13.7971 Y10.1313 F120.00
G01 X13.7876 Y10.0669 F120.00
G01 X13.7844 Y10.0060 F120.00
G01 X13.7844 Y5.7329 F120.00
G01 X13.2626 Y4.8017 F120.00
G00 Z2.0000
G00 X13.2870 Y4.8453
G01 F60.00
G01 Z-0.4193
G01 F120.00
G01 X13.2626 Y4.8017 F120.00
G01 X13.2442 Y4.7813 F120.00
G01 X13.2367 Y4.7720 F120.00
G01 X13.2304 Y4.7635 F120.00
G01 X13.2367 Y4.7720 F120.00
G01 X13.2442 Y4.7813 F120.00
G01 X13.2626 Y4.8017 F120.00
G00 Z2.0000
G00 X21.3972 Y0.3095
G01 F60.00
G01 Z-0.4000
G01 F120.00
G01 X21.4130 Y0.3010 F120.00
G01 X21.4646 Y0.2768 F120.00
G01 X21.5182 Y0.2574 F120.00
G01 X21.5335 Y0.2528 F120.00
G01 X21.5888 Y0.2391 F120.00
G01 X21.6452 Y0.2306 F120.00
G01 X21.6610 Y0.2290 F120.00
G01 X21.7180 Y0.2264 F120.00
G01 X45.2130 Y0.2264 F120.00
G01 X45.2779 Y0.2296 F120.00
G01 X45.3344 Y0.2378 F120.00
G01 X45.3500 Y0.2409 F120.00
G01 X45.4053 Y0.2549 F120.00
G01 X45.4591 Y0.2740 F120.00
G01 X45.4739 Y0.2801 F120.00
G01 X45.5253 Y0.3046 F120.00
G01 X45.5744 Y0.3338 F120.00
G01 X45.5876 Y0.3427 F120.00
G01 X45.6333 Y0.3768 F120.00
G01 X45.6787 Y0.4177 F120.00
G01 X45.9810 Y0.7199 F120.00
G01 X46.8833 Y1.4040 F120.00
G01 X46.8980 Y1.4011 F120.00
G01 X47.0030 Y1.3858 F120.00
G01 X47.1090 Y1.3803 F120.00
G01 X47.1250 Y1.3803 F120.00
G01 X47.2310 Y1.3858 F120.00
G01 X47.3360 Y1.4011 F120.00
G01 X47.3516 Y1.4042 F120.00
G01 X47.4546 Y1.4302 F120.00
G01 X47.5546 Y1.4658 F120.00
G01 X47.5693 Y1.4719 F120.00
G01 X47.6652 Y1.5175 F120.00
G01 X47.7563 Y1.5719 F120.00
G01 X47.7696 Y1.5807 F120.00
G01 X47.8547 Y1.6441 F120.00
G01 X47.9393 Y1.7207 F120.00
G01 X48.0159 Y1.8053 F120.00
G01 X48.0793 Y1.8904 F120.00
G01 X48.0881 Y1.9037 F120.00
G01 X48.1425 Y1.9948 F120.00
G01 X48.1881 Y2.0907 F120.00
G01 X48.1942 Y2.1054 F120.00
G01 X48.2298 Y2.2054 F120.00
G01 X48.2567 Y2.3122 F120.00
G01 X48.2589 Y2.3240 F120.00
G01 X48.2742 Y2.4290 F120.00
G01 X48.2798 Y2.5390 F120.00
G01 X48.2798 Y3.0440 F120.00
G01 X48.2742 Y3.1580 F120.00
G01 X48.2575 Y3.2709 F120.00
G01 X48.2319 Y3.3739 F120.00
G01 X48.2273 Y3.3891 F120.00
G01 X48.1913 Y3.4890 F120.00
G01 X48.1461 Y3.5850 F120.00
G01 X48.1386 Y3.5991 F120.00
G01 X48.0839 Y3.6900 F120.00
G01 X48.0159 Y3.7817 F120.00
G01 X47.9448 Y3.8605 F120.00
G01 X47.9335 Y3.8718 F120.00
G01 X47.8547 Y3.9429 F120.00
G01 X47.7696 Y4.0063 F120.00
G01 X47.7563 Y4.0151 F120.00
G01 X47.6652 Y4.0695 F120.00
G01 X47.5693 Y4.1151 F120.00
G01 X47.5546 Y4.1212 F120.00
G01 X47.4546 Y4.1568 F120.00
G01 X47.3516 Y4.1828 F120.00
G01 X47.3360 Y4.1859 F120.00
G01 X47.2310 Y4.2012 F120.00
G01 X47.1170 Y4.2068 F120.00
G01 X47.0030 Y4.2012 F120.00
G01 X46.8980 Y4.1859 F120.00
G01 X46.8824 Y4.1828 F120.00
G01 X46.7794 Y4.1568 F120.00
G01 X46.6794 Y4.1212 F120.00
G01 X46.6647 Y4.1151 F120.00
G01 X46.5760 Y4.0731 F120.00
G01 X46.5619 Y4.0656 F120.00
G01 X46.4710 Y4.0109 F120.00
G01 X46.3856 Y3.9478 F120.00
G01 X46.3733 Y3.9377 F120.00
G01 X46.2947 Y3.8663 F120.00
G01 X46.2233 Y3.7877 F120.00
G01 X46.2132 Y3.7754 F120.00
G01 X46.1547 Y3.6966 F120.00
G01 X46.1480 Y3.6867 F120.00
G01 X46.0915 Y3.5922 F120.00
G01 X46.0459 Y3.4963 F120.00
G01 X46.0398 Y3.4816 F120.00
G01 X46.0054 Y3.3854 F120.00
G01 X46.0021 Y3.3739 F120.00
G01 X45.9782 Y3.2786 F120.00
G01 X45.9758 Y3.2669 F120.00
G01 X45.9598 Y3.1580 F120.00
G01 X45.9562 Y3.0894 F120.00
G01 X45.2799 Y1.8929 F120.00
G01 X44.9385 Y1.5516 F120.00
G01 X22.1152 Y1.5516 F120.00
G01 X21.9634 Y2.1499 F120.00
G01 X21.9583 Y2.1662 F120.00
G01 X21.9392 Y2.2417 F120.00
G01 X21.8877 Y2.3857 F120.00
G01 X21.8222 Y2.5241 F120.00
G01 X21.7478 Y2.6486 F120.00
G01 X21.7390 Y2.6618 F120.00
G01 X21.6524 Y2.7782 F120.00
G01 X21.5551 Y2.8859 F120.00
G01 X21.5439 Y2.8971 F120.00
G01 X21.4362 Y2.9944 F120.00
G01 X21.3198 Y3.0810 F120.00
G01 X21.3066 Y3.0898 F120.00
G01 X21.1821 Y3.1642 F120.00
G01 X21.0510 Y3.2264 F120.00
G01 X21.0363 Y3.2325 F120.00
G01 X20.8997 Y3.2812 F120.00
G01 X20.7512 Y3.3184 F120.00
G01 X20.6078 Y3.3399 F120.00
G01 X20.5919 Y3.3414 F120.00
G01 X20.4470 Y3.3483 F120.00
G01 X20.2942 Y3.3408 F120.00
G01 X20.1506 Y3.3197 F120.00
G01 X20.1350 Y3.3166 F120.00
G01 X19.9943 Y3.2812 F120.00
G01 X19.8503 Y3.2297 F120.00
G01 X19.7190 Y3.1678 F120.00
G01 X19.7050 Y3.1603 F120.00
G01 X19.5807 Y3.0856 F120.00
G01 X19.4578 Y2.9944 F120.00
G01 X19.3444 Y2.8916 F120.00
G01 X19.2416 Y2.7782 F120.00
G01 X19.1504 Y2.6553 F120.00
G01 X19.0718 Y2.5241 F120.00
G01 X19.0063 Y2.3857 F120.00
G01 X18.9548 Y2.2417 F120.00
G01 X18.9176 Y2.0932 F120.00
G01 X18.8952 Y1.9418 F120.00
G01 X18.8877 Y1.7890 F120.00
G01 X18.8952 Y1.6362 F120.00
G01 X18.9176 Y1.4848 F120.00
G01 X18.9548 Y1.3363 F120.00
G01 X19.0063 Y1.1923 F120.00
G01 X19.0718 Y1.0539 F120.00
G01 X19.1504 Y0.9227 F120.00
G01 X19.2416 Y0.7998 F120.00
G01 X19.3444 Y0.6864 F120.00
G01 X19.4578 Y0.5836 F120.00
G01 X19.5742 Y0.4970 F120.00
G01 X19.5874 Y0.4882 F120.00
G01 X19.7050 Y0.4177 F120.00
G01 X19.7190 Y0.4102 F120.00
G01 X19.8503 Y0.3483 F120.00
G01 X19.9868 Y0.2993 F120.00
G01 X19.9982 Y0.2957 F120.00
G01 X20.1428 Y0.2596 F120.00
G01 X20.2862 Y0.2381 F120.00
G01 X20.3021 Y0.2366 F120.00
G01 X20.4470 Y0.2297 F120.00
G01 X20.5990 Y0.2371 F120.00
G01 X20.6116 Y0.2385 F120.00
G01 X21.3972 Y0.3095 F120.00
G00 Z2.0000
G00 X21.3474 Y0.3050
G01 F60.00
G01 Z-0.4000
G01 F120.00
G01 X21.3972 Y0.3095 F120.00
G01 X21.4130 Y0.3010 F120.00
G01 X21.4420 Y0.2873 F120.00
G01 X21.4130 Y0.3010 F120.00
G01 X21.3972 Y0.3095 F120.00
G00 X21.3972 Y0.3095
G01 F60.00
G01 Z-0.4193
G01 F120.00
G01 X21.4130 Y0.3010 F120.00
G01 X21.4646 Y0.2768 F120.00
G01 X21.5182 Y0.2574 F120.00
G01 X21.5335 Y0.2528 F120.00
G01 X21.5888 Y0.2391 F120.00
G01 X21.6452 Y0.2306 F120.00
G01 X21.6610 Y0.2290 F120.00
G01 X21.7180 Y0.2264 F120.00
G01 X45.2130 Y0.2264 F120.00
G01 X45.2779 Y0.2296 F120.00
G01 X45.3344 Y0.2378 F120.00
G01 X45.3500 Y0.2409 F120.00
G01 X45.4053 Y0.2549 F120.00
G01 X45.4591 Y0.2740 F120.00
G01 X45.4739 Y0.2801 F120.00
G01 X45.5253 Y0.3046 F120.00
G01 X45.5744 Y0.3338 F120.00
G01 X45.5876 Y0.3427 F120.00
G01 X45.6333 Y0.3768 F120.00
G01 X45.6787 Y0.4177 F120.00
G01 X45.9810 Y0.7199 F120.00
G01 X46.8833 Y1.4040 F120.00
G01 X46.8980 Y1.4011 F120.00
G01 X47.0030 Y1.3858 F120.00
G01 X47.1090 Y1.3803 F120.00
G01 X47.1250 Y1.3803 F120.00
G01 X47.2310 Y1.3858 F120.00
G01 X47.3360 Y1.4011 F120.00
G01 X47.3516 Y1.4042 F120.00
G01 X47.4546 Y1.4302 F120.00
G01 X47.5546 Y1.4658 F120.00
G01 X47.5693 Y1.4719 F120.00
G01 X47.6652 Y1.5175 F120.00
G01 X47.7563 Y1.5719 F120.00
G01 X47.7696 Y1.5807 F120.00
G01 X47.8547 Y1.6441 F120.00
G01 X47.9393 Y1.7207 F120.00
G01 X48.0159 Y1.8053 F120.00
G01 X48.0793 Y1.8904 F120.00
G01 X48.0881 Y1.9037 F120.00
G01 X48.1425 Y1.9948 F120.00
G01 X48.1881 Y2.0907 F120.00
G01 X48.1942 Y2.1054 F120.00
G01 X48.2298 Y2.2054 F120.00
G01 X48.2567 Y2.3122 F120.00
G01 X48.2589 Y2.3240 F120.00
G01 X48.2742 Y2.4290 F120.00
G01 X48.2798 Y2.5390 F120.00
G01 X48.2798 Y3.0440 F120.00
G01 X48.2742 Y3.1580 F120.00
G01 X48.2575 Y3.2709 F120.00
G01 X48.2319 Y3.3739 F120.00
G01 X48.2273 Y3.3891 F120.00
G01 X48.1913 Y3.4890 F120.00
G01 X48.1461 Y3.5850 F120.00
G01 X48.1386 Y3.5991 F120.00
G01 X48.0839 Y3.6900 F120.00
G01 X48.0159 Y3.7817 F120.00
G01 X47.9448 Y3.8605 F120.00
G01 X47.9335 Y3.8718 F120.00
G01 X47.8547 Y3.9429 F120.00
G01 X47.7696 Y4.0063 F120.00
G01 X47.7563 Y4.0151 F120.00
G01 X47.6652 Y4.0695 F120.00
G01 X47.5693 Y4.1151 F120.00
G01 X47.5546 Y4.1212 F120.00
G01 X47.4546 Y4.1568 F120.00
G01 X47.3516 Y4.1828 F120.00
G01 X47.3360 Y4.1859 F120.00
G01 X47.2310 Y4.2012 F120.00
G01 X47.1170 Y4.2068 F120.00
G01 X47.0030 Y4.2012 F120.00
G01 X46.8980 Y4.1859 F120.00
G01 X46.8824 Y4.1828 F120.00
G01 X46.7794 Y4.1568 F120.00
G01 X46.6794 Y4.1212 F120.00
G01 X46.6647 Y4.1151 F120.00
G01 X46.5760 Y4.0731 F120.00
G01 X46.5619 Y4.0656 F120.00
G01 X46.4710 Y4.0109 F120.00
G01 X46.3856 Y3.9478 F120.00
G01 X46.3733 Y3.9377 F120.00
G01 X46.2947 Y3.8663 F120.00
G01 X46.2233 Y3.7877 F120.00
G01 X46.2132 Y3.7754 F120.00
G01 X46.1547 Y3.6966 F120.00
G01 X46.1480 Y3.6867 F120.00
G01 X46.0915 Y3.5922 F120.00
G01 X46.0459 Y3.4963 F120.00
G01 X46.0398 Y3.4816 F120.00
G01 X46.0054 Y3.3854 F120.00
G01 X46.0021 Y3.3739 F120.00
G01 X45.9782 Y3.2786 F120.00
G01 X45.9758 Y3.2669 F120.00
G01 X45.9598 Y3.1580 F120.00
G01 X45.9562 Y3.0894 F120.00
G01 X45.2799 Y1.8929 F120.00
G01 X44.9385 Y1.5516 F120.00
G01 X22.1152 Y1.5516 F120.00
G01 X21.9634 Y2.1499 F120.00
G01 X21.9583 Y2.1662 F120.00
G01 X21.9392 Y2.2417 F120.00
G01 X21.8877 Y2.3857 F120.00
G01 X21.8222 Y2.5241 F120.00
G01 X21.7478 Y2.6486 F120.00
G01 X21.7390 Y2.6618 F120.00
G01 X21.6524 Y2.7782 F120.00
G01 X21.5551 Y2.8859 F120.00
G01 X21.5439 Y2.8971 F120.00
G01 X21.4362 Y2.9944 F120.00
G01 X21.3198 Y3.0810 F120.00
G01 X21.3066 Y3.0898 F120.00
G01 X21.1821 Y3.1642 F120.00
G01 X21.0510 Y3.2264 F120.00
G01 X21.0363 Y3.2325 F120.00
G01 X20.8997 Y3.2812 F120.00
G01 X20.7512 Y3.3184 F120.00
G01 X20.6078 Y3.3399 F120.00
G01 X20.5919 Y3.3414 F120.00
G01 X20.4470 Y3.3483 F120.00
G01 X20.2942 Y3.3408 F120.00
G01 X20.1506 Y3.3197 F120.00
G01 X20.1350 Y3.3166 F120.00
G01 X19.9943 Y3.2812 F120.00
G01 X19.8503 Y3.2297 F120.00
G01 X19.7190 Y3.1678 F120.00
G01 X19.7050 Y3.1603 F120.00
G01 X19.5807 Y3.0856 F120.00
G01 X19.4578 Y2.9944 F120.00
G01 X19.3444 Y2.8916 F120.00
G01 X19.2416 Y2.7782 F120.00
G01 X19.1504 Y2.6553 F120.00
G01 X19.0718 Y2.5241 F120.00
G01 X19.0063 Y2.3857 F120.00
G01 X18.9548 Y2.2417 F120.00
G01 X18.9176 Y2.0932 F120.00
G01 X18.8952 Y1.9418 F120.00
G01 X18.8877 Y1.7890 F120.00
G01 X18.8952 Y1.6362 F120.00
G01 X18.9176 Y1.4848 F120.00
G01 X18.9548 Y1.3363 F120.00
G01 X19.0063 Y1.1923 F120.00
G01 X19.0718 Y1.0539 F120.00
G01 X19.1504 Y0.9227 F120.00
G01 X19.2416 Y0.7998 F120.00
G01 X19.3444 Y0.6864 F120.00
G01 X19.4578 Y0.5836 F120.00
G01 X19.5742 Y0.4970 F120.00
G01 X19.5874 Y0.4882 F120.00
G01 X19.7050 Y0.4177 F120.00
G01 X19.7190 Y0.4102 F120.00
G01 X19.8503 Y0.3483 F120.00
G01 X19.9868 Y0.2993 F120.00
G01 X19.9982 Y0.2957 F120.00
G01 X20.1428 Y0.2596 F120.00
G01 X20.2862 Y0.2381 F120.00
G01 X20.3021 Y0.2366 F120.00
G01 X20.4470 Y0.2297 F120.00
G01 X20.5990 Y0.2371 F120.00
G01 X20.6116 Y0.2385 F120.00
G01 X21.3972 Y0.3095 F120.00
G00 Z2.0000
G00 X21.3474 Y0.3050
G01 F60.00
G01 Z-0.4193
G01 F120.00
G01 X21.3972 Y0.3095 F120.00
G01 X21.4130 Y0.3010 F120.00
G01 X21.4420 Y0.2873 F120.00
G01 X21.4130 Y0.3010 F120.00
G01 X21.3972 Y0.3095 F120.00
G00 Z2.0000
G00 X26.3229 Y5.3425
G01 F60.00
G01 Z-0.4000
G01 F120.00
G01 X26.2971 Y5.3412 F120.00
G01 X26.2892 Y5.3404 F120.00
G01 X26.1457 Y5.3191 F120.00
G01 X26.1340 Y5.3166 F120.00
G01 X25.9933 Y5.2812 F120.00
G01 X25.8493 Y5.2297 F120.00
G01 X25.7109 Y5.1642 F120.00
G01 X25.5797 Y5.0856 F120.00
G01 X25.4568 Y4.9944 F120.00
G01 X25.3434 Y4.8916 F120.00
G01 X25.2406 Y4.7782 F120.00
G01 X25.1494 Y4.6553 F120.00
G01 X25.0708 Y4.5241 F120.00
G01 X25.0053 Y4.3857 F120.00
G01 X24.9538 Y4.2417 F120.00
G01 X24.9166 Y4.0932 F120.00
G01 X24.8942 Y3.9418 F120.00
G01 X24.8867 Y3.7890 F120.00
G01 X24.8942 Y3.6362 F120.00
G01 X24.9166 Y3.4848 F120.00
G01 X24.9538 Y3.3363 F120.00
G01 X25.0053 Y3.1923 F120.00
G01 X25.0708 Y3.0539 F120.00
G01 X25.1494 Y2.9227 F120.00
G01 X25.2406 Y2.7998 F120.00
G01 X25.3434 Y2.6864 F120.00
G01 X25.4568 Y2.5836 F120.00
G01 X25.5797 Y2.4924 F120.00
G01 X25.7109 Y2.4138 F120.00
G01 X25.8493 Y2.3483 F120.00
G01 X25.9933 Y2.2968 F120.00
G01 X26.1418 Y2.2596 F120.00
G01 X26.2932 Y2.2372 F120.00
G01 X26.4460 Y2.2297 F120.00
G01 X26.5988 Y2.2372 F120.00
G01 X26.7502 Y2.2596 F120.00
G01 X26.8987 Y2.2968 F120.00
G01 X27.0427 Y2.3483 F120.00
G01 X27.1811 Y2.4138 F120.00
G01 X27.3123 Y2.4924 F120.00
G01 X27.4352 Y2.5836 F120.00
G01 X27.5486 Y2.6864 F120.00
G01 X27.6514 Y2.7998 F120.00
G01 X27.7426 Y2.9227 F120.00
G01 X27.8212 Y3.0539 F120.00
G01 X27.8867 Y3.1923 F120.00
G01 X27.9370 Y3.3325 F120.00
G01 X27.9403 Y3.3440 F120.00
G01 X27.9754 Y3.4848 F120.00
G01 X27.9974 Y3.6322 F120.00
G01 X27.9982 Y3.6401 F120.00
G01 X27.9995 Y3.6659 F120.00
G01 X28.2894 Y4.6950 F120.00
G01 X30.4432 Y6.8483 F120.00
G01 X30.4789 Y6.8876 F120.00
G01 X30.4890 Y6.8999 F120.00
G01 X30.5229 Y6.9458 F120.00
G01 X30.5524 Y6.9947 F120.00
G01 X30.5599 Y7.0087 F120.00
G01 X30.5841 Y7.0604 F120.00
G01 X30.6036 Y7.1141 F120.00
G01 X30.6082 Y7.1293 F120.00
G01 X30.6219 Y7.1847 F120.00
G01 X30.6304 Y7.2411 F120.00
G01 X30.6320 Y7.2570 F120.00
G01 X30.6346 Y7.3140 F120.00
G01 X30.6346 Y9.7216 F120.00
G01 X30.8647 Y10.3660 F120.00
G01 X30.8754 Y10.3789 F120.00
G01 X30.9339 Y10.4577 F120.00
G01 X30.9427 Y10.4710 F120.00
G01 X30.9971 Y10.5621 F120.00
G01 X31.0426 Y10.6579 F120.00
G01 X31.0487 Y10.6726 F120.00
G01 X31.0843 Y10.7726 F120.00
G01 X31.1120 Y10.8832 F120.00
G01 X31.1288 Y10.9961 F120.00
G01 X31.1343 Y11.1100 F120.00
G01 X31.1288 Y11.2239 F120.00
G01 X31.1120 Y11.3368 F120.00
G01 X31.0843 Y11.4474 F120.00
G01 X31.0487 Y11.5474 F120.00
G01 X31.0426 Y11.5621 F120.00
G01 X31.0007 Y11.6508 F120.00
G01 X30.9932 Y11.6649 F120.00
G01 X30.9385 Y11.7558 F120.00
G01 X30.8754 Y11.8411 F120.00
G01 X30.8653 Y11.8534 F120.00
G01 X30.6346 Y12.4994 F120.00
G01 X30.6346 Y18.2675 F120.00
G01 X33.2945 Y20.9274 F120.00
G01 X35.1790 Y20.9274 F120.00
G01 X35.2439 Y20.9306 F120.00
G01 X35.3083 Y20.9401 F120.00
G01 X35.3713 Y20.9559 F120.00
G01 X35.4251 Y20.9750 F120.00
G01 X35.4399 Y20.9811 F120.00
G01 X35.4913 Y21.0056 F120.00
G01 X35.5404 Y21.0348 F120.00
G01 X35.5536 Y21.0437 F120.00
G01 X35.5993 Y21.0778 F120.00
G01 X35.6418 Y21.1160 F120.00
G01 X35.6530 Y21.1272 F120.00
G01 X35.6912 Y21.1697 F120.00
G01 X35.7253 Y21.2154 F120.00
G01 X35.7342 Y21.2286 F120.00
G01 X35.7634 Y21.2777 F120.00
G01 X35.7879 Y21.3291 F120.00
G01 X35.7940 Y21.3439 F120.00
G01 X35.8131 Y21.3977 F120.00
G01 X35.8289 Y21.4607 F120.00
G01 X35.8374 Y21.5171 F120.00
G01 X35.8390 Y21.5330 F120.00
G01 X35.8416 Y21.5900 F120.00
G01 X35.8414 Y35.1880 F120.00
G01 X35.8384 Y35.2449 F120.00
G01 X35.8302 Y35.3014 F120.00
G01 X35.8271 Y35.3170 F120.00
G01 X35.8131 Y35.3723 F120.00
G01 X35.7912 Y35.4336 F120.00
G01 X35.7669 Y35.4852 F120.00
G01 X35.7594 Y35.4993 F120.00
G01 X35.7342 Y35.5414 F120.00
G01 X35.7253 Y35.5546 F120.00
G01 X35.6912 Y35.6003 F120.00
G01 X35.6503 Y35.6457 F120.00
G01 X35.1011 Y36.1950 F120.00
G01 X38.1885 Y39.2825 F120.00
G01 X38.2322 Y39.3307 F120.00
G01 X38.2709 Y39.3829 F120.00
G01 X38.3044 Y39.4387 F120.00
G01 X38.3306 Y39.4938 F120.00
G01 X38.3350 Y39.5049 F120.00
G01 X38.3541 Y39.5587 F120.00
G01 X38.3681 Y39.6140 F120.00
G01 X38.3712 Y39.6296 F120.00
G01 X38.3784 Y39.6781 F120.00
G01 X38.3800 Y39.6940 F120.00
G01 X38.3826 Y39.7510 F120.00
G01 X38.3826 Y40.3964 F120.00
G01 X38.6123 Y41.0396 F120.00
G01 X38.6224 Y41.0519 F120.00
G01 X38.6855 Y41.1372 F120.00
G01 X38.7441 Y41.2351 F120.00
G01 X38.7929 Y41.3382 F120.00
G01 X38.8301 Y41.4418 F120.00
G01 X38.8334 Y41.4533 F120.00
G01 X38.8590 Y41.5562 F120.00
G01 X38.8758 Y41.6691 F120.00
G01 X38.8813 Y41.7830 F120.00
G01 X38.8761 Y41.8930 F120.00
G01 X38.8748 Y41.9048 F120.00
G01 X38.8604 Y42.0019 F120.00
G01 X38.8573 Y42.0175 F120.00
G01 X38.8313 Y42.1204 F120.00
G01 X38.7929 Y42.2278 F120.00
G01 X38.7477 Y42.3238 F120.00
G01 X38.7402 Y42.3379 F120.00
G01 X38.6855 Y42.4288 F120.00
G01 X38.6175 Y42.5204 F120.00
G01 X38.5464 Y42.5991 F120.00
G01 X38.5351 Y42.6104 F120.00
G01 X38.4564 Y42.6815 F120.00
G01 X38.3648 Y42.7495 F120.00
G01 X38.2739 Y42.8042 F120.00
G01 X38.2598 Y42.8117 F120.00
G01 X38.1638 Y42.8569 F120.00
G01 X38.0564 Y42.8953 F120.00
G01 X37.9458 Y42.9230 F120.00
G01 X37.8408 Y42.9388 F120.00
G01 X37.8250 Y42.9403 F120.00
G01 X37.7190 Y42.9453 F120.00
G01 X37.6051 Y42.9398 F120.00
G01 X37.5001 Y42.9244 F120.00
G01 X37.4845 Y42.9213 F120.00
G01 X37.3893 Y42.8974 F120.00
G01 X37.3740 Y42.8928 F120.00
G01 X37.2742 Y42.8569 F120.00
G01 X37.1711 Y42.8081 F120.00
G01 X37.0732 Y42.7495 F120.00
G01 X36.9879 Y42.6864 F120.00
G01 X36.9756 Y42.6763 F120.00
G01 X36.9029 Y42.6104 F120.00
G01 X36.8916 Y42.5991 F120.00
G01 X36.8205 Y42.5204 F120.00
G01 X36.7548 Y42.4321 F120.00
G01 X36.7483 Y42.4220 F120.00
G01 X36.6939 Y42.3309 F120.00
G01 X36.6451 Y42.2278 F120.00
G01 X36.6067 Y42.1204 F120.00
G01 X36.5807 Y42.0175 F120.00
G01 X36.5776 Y42.0019 F120.00
G01 X36.5632 Y41.9048 F120.00
G01 X36.5617 Y41.8890 F120.00
G01 X36.5567 Y41.7830 F120.00
G01 X36.5617 Y41.6770 F120.00
G01 X36.5627 Y41.6651 F120.00
G01 X36.5776 Y41.5641 F120.00
G01 X36.5807 Y41.5485 F120.00
G01 X36.6067 Y41.4456 F120.00
G01 X36.6437 Y41.3419 F120.00
G01 X36.6484 Y41.3309 F120.00
G01 X36.6939 Y41.2351 F120.00
G01 X36.7483 Y41.1440 F120.00
G01 X36.7571 Y41.1307 F120.00
G01 X36.8156 Y41.0519 F120.00
G01 X36.8257 Y41.0396 F120.00
G01 X37.0574 Y40.3908 F120.00
G01 X37.0574 Y40.0255 F120.00
G01 X33.8895 Y36.8576 F120.00
G01 X21.9646 Y36.8576 F120.00
G01 X21.1201 Y37.1391 F120.00
G01 X21.0956 Y37.1573 F120.00
G01 X21.0857 Y37.1640 F120.00
G01 X20.9947 Y37.2186 F120.00
G01 X20.9840 Y37.2241 F120.00
G01 X20.8917 Y37.2678 F120.00
G01 X20.8806 Y37.2722 F120.00
G01 X20.7806 Y37.3078 F120.00
G01 X20.6776 Y37.3338 F120.00
G01 X20.6620 Y37.3369 F120.00
G01 X20.5570 Y37.3522 F120.00
G01 X20.4470 Y37.3578 F120.00
G01 X19.9380 Y37.3578 F120.00
G01 X19.8280 Y37.3522 F120.00
G01 X19.7230 Y37.3369 F120.00
G01 X19.7074 Y37.3338 F120.00
G01 X19.6121 Y37.3099 F120.00
G01 X19.5969 Y37.3053 F120.00
G01 X19.4970 Y37.2693 F120.00
G01 X19.3938 Y37.2205 F120.00
G01 X19.2960 Y37.1619 F120.00
G01 X19.2106 Y37.0988 F120.00
G01 X19.1983 Y37.0887 F120.00
G01 X19.1255 Y37.0228 F120.00
G01 X19.1142 Y37.0115 F120.00
G01 X19.0431 Y36.9327 F120.00
G01 X18.9751 Y36.8410 F120.00
G01 X18.9204 Y36.7501 F120.00
G01 X18.9129 Y36.7360 F120.00
G01 X18.8677 Y36.6400 F120.00
G01 X18.8292 Y36.5326 F120.00
G01 X18.8015 Y36.4219 F120.00
G01 X18.7857 Y36.3169 F120.00
G01 X18.7842 Y36.3010 F120.00
G01 X18.7792 Y36.1950 F120.00
G01 X18.7842 Y36.0890 F120.00
G01 X18.7857 Y36.0731 F120.00
G01 X18.8001 Y35.9760 F120.00
G01 X18.8032 Y35.9604 F120.00
G01 X18.8292 Y35.8574 F120.00
G01 X18.8677 Y35.7500 F120.00
G01 X18.9165 Y35.6468 F120.00
G01 X18.9751 Y35.5490 F120.00
G01 X19.0431 Y35.4573 F120.00
G01 X19.1197 Y35.3727 F120.00
G01 X19.2043 Y35.2961 F120.00
G01 X19.2894 Y35.2327 F120.00
G01 X19.3027 Y35.2239 F120.00
G01 X19.3938 Y35.1695 F120.00
G01 X19.4897 Y35.1239 F120.00
G01 X19.5044 Y35.1178 F120.00
G01 X19.5969 Y35.0847 F120.00
G01 X19.6121 Y35.0801 F120.00
G01 X19.7151 Y35.0545 F120.00
G01 X19.8280 Y35.0378 F120.00
G01 X19.9420 Y35.0322 F120.00
G01 X20.4470 Y35.0322 F120.00
G01 X20.5570 Y35.0378 F120.00
G01 X20.6620 Y35.0531 F120.00
G01 X20.6738 Y35.0553 F120.00
G01 X20.7806 Y35.0822 F120.00
G01 X20.8806 Y35.1178 F120.00
G01 X20.8917 Y35.1222 F120.00
G01 X20.9840 Y35.1659 F120.00
G01 X20.9947 Y35.1714 F120.00
G01 X21.0857 Y35.2260 F120.00
G01 X21.0956 Y35.2327 F120.00
G01 X21.1176 Y35.2491 F120.00
G01 X21.9676 Y35.5324 F120.00
G01 X33.8895 Y35.5324 F120.00
G01 X34.5164 Y34.9055 F120.00
G01 X34.5164 Y22.2526 F120.00
G01 X33.0200 Y22.2526 F120.00
G01 X32.9630 Y22.2500 F120.00
G01 X32.9471 Y22.2484 F120.00
G01 X32.8907 Y22.2399 F120.00
G01 X32.8353 Y22.2262 F120.00
G01 X32.8201 Y22.2216 F120.00
G01 X32.7664 Y22.2022 F120.00
G01 X32.7148 Y22.1779 F120.00
G01 X32.7007 Y22.1704 F120.00
G01 X32.6519 Y22.1409 F120.00
G01 X32.5997 Y22.1022 F120.00
G01 X32.5515 Y22.0585 F120.00
G01 X29.5035 Y19.0105 F120.00
G01 X29.4598 Y18.9623 F120.00
G01 X29.4257 Y18.9166 F120.00
G01 X29.4168 Y18.9034 F120.00
G01 X29.3916 Y18.8613 F120.00
G01 X29.3841 Y18.8472 F120.00
G01 X29.3631 Y18.8029 F120.00
G01 X29.3570 Y18.7881 F120.00
G01 X29.3379 Y18.7343 F120.00
G01 X29.3239 Y18.6790 F120.00
G01 X29.3208 Y18.6634 F120.00
G01 X29.3126 Y18.6069 F120.00
G01 X29.3094 Y18.5420 F120.00
G01 X29.3094 Y12.4994 F120.00
G01 X29.0787 Y11.8534 F120.00
G01 X29.0686 Y11.8411 F120.00
G01 X29.0055 Y11.7558 F120.00
G01 X28.9508 Y11.6649 F120.00
G01 X28.9433 Y11.6508 F120.00
G01 X28.9014 Y11.5621 F120.00
G01 X28.8953 Y11.5474 F120.00
G01 X28.8597 Y11.4474 F120.00
G01 X28.8320 Y11.3368 F120.00
G01 X28.8152 Y11.2239 F120.00
G01 X28.8097 Y11.1100 F120.00
G01 X28.8152 Y10.9961 F120.00
G01 X28.8320 Y10.8832 F120.00
G01 X28.8597 Y10.7726 F120.00
G01 X28.8953 Y10.6726 F120.00
G01 X28.9014 Y10.6579 F120.00
G01 X28.9469 Y10.5621 F120.00
G01 X29.0013 Y10.4710 F120.00
G01 X29.0101 Y10.4577 F120.00
G01 X29.0686 Y10.3789 F120.00
G01 X29.0793 Y10.3658 F120.00
G01 X29.3094 Y9.7216 F120.00
G01 X29.3094 Y7.5885 F120.00
G01 X27.3531 Y5.6327 F120.00
G01 X26.3229 Y5.3425 F120.00
G00 Z2.0000
G00 X26.3710 Y5.3561
G01 F60.00
G01 Z-0.4000
G01 F120.00
G01 X26.3229 Y5.3425 F120.00
G01 X26.2971 Y5.3412 F120.00
G01 X26.2892 Y5.3404 F120.00
G01 X26.2731 Y5.3380 F120.00
G01 X26.2892 Y5.3404 F120.00
G01 X26.2971 Y5.3412 F120.00
G01 X26.3229 Y5.3425 F120.00
G00 X26.3229 Y5.3425
G01 F60.00
G01 Z-0.4193
G01 F120.00
G01 X26.2971 Y5.3412 F120.00
G01 X26.2892 Y5.3404 F120.00
G01 X26.1457 Y5.3191 F120.00
G01 X26.1340 Y5.3166 F120.00
G01 X25.9933 Y5.2812 F120.00
G01 X25.8493 Y5.2297 F120.00
G01 X25.7109 Y5.1642 F120.00
G01 X25.5797 Y5.0856 F120.00
G01 X25.4568 Y4.9944 F120.00
G01 X25.3434 Y4.8916 F120.00
G01 X25.2406 Y4.7782 F120.00
G01 X25.1494 Y4.6553 F120.00
G01 X25.0708 Y4.5241 F120.00
G01 X25.0053 Y4.3857 F120.00
G01 X24.9538 Y4.2417 F120.00
G01 X24.9166 Y4.0932 F120.00
G01 X24.8942 Y3.9418 F120.00
G01 X24.8867 Y3.7890 F120.00
G01 X24.8942 Y3.6362 F120.00
G01 X24.9166 Y3.4848 F120.00
G01 X24.9538 Y3.3363 F120.00
G01 X25.0053 Y3.1923 F120.00
G01 X25.0708 Y3.0539 F120.00
G01 X25.1494 Y2.9227 F120.00
G01 X25.2406 Y2.7998 F120.00
G01 X25.3434 Y2.6864 F120.00
G01 X25.4568 Y2.5836 F120.00
G01 X25.5797 Y2.4924 F120.00
G01 X25.7109 Y2.4138 F120.00
G01 X25.8493 Y2.3483 F120.00
G01 X25.9933 Y2.2968 F120.00
G01 X26.1418 Y2.2596 F120.00
G01 X26.2932 Y2.2372 F120.00
G01 X26.4460 Y2.2297 F120.00
G01 X26.5988 Y2.2372 F120.00
G01 X26.7502 Y2.2596 F120.00
G01 X26.8987 Y2.2968 F120.00
G01 X27.0427 Y2.3483 F120.00
G01 X27.1811 Y2.4138 F120.00
G01 X27.3123 Y2.4924 F120.00
G01 X27.4352 Y2.5836 F120.00
G01 X27.5486 Y2.6864 F120.00
G01 X27.6514 Y2.7998 F120.00
G01 X27.7426 Y2.9227 F120.00
G01 X27.8212 Y3.0539 F120.00
G01 X27.8867 Y3.1923 F120.00
G01 X27.9370 Y3.3325 F120.00
G01 X27.9403 Y3.3440 F120.00
G01 X27.9754 Y3.4848 F120.00
G01 X27.9974 Y3.6322 F120.00
G01 X27.9982 Y3.6401 F120.00
G01 X27.9995 Y3.6659 F120.00
G01 X28.2894 Y4.6950 F120.00
G01 X30.4432 Y6.8483 F120.00
G01 X30.4789 Y6.8876 F120.00
G01 X30.4890 Y6.8999 F120.00
G01 X30.5229 Y6.9458 F120.00
G01 X30.5524 Y6.9947 F120.00
G01 X30.5599 Y7.0087 F120.00
G01 X30.5841 Y7.0604 F120.00
G01 X30.6036 Y7.1141 F120.00
G01 X30.6082 Y7.1293 F120.00
G01 X30.6219 Y7.1847 F120.00
G01 X30.6304 Y7.2411 F120.00
G01 X30.6320 Y7.2570 F120.00
G01 X30.6346 Y7.3140 F120.00
G01 X30.6346 Y9.7216 F120.00
G01 X30.8647 Y10.3660 F120.00
G01 X30.8754 Y10.3789 F120.00
G01 X30.9339 Y10.4577 F120.00
G01 X30.9427 Y10.4710 F120.00
G01 X30.9971 Y10.5621 F120.00
G01 X31.0426 Y10.6579 F120.00
G01 X31.0487 Y10.6726 F120.00
G01 X31.0843 Y10.7726 F120.00
G01 X31.1120 Y10.8832 F120.00
G01 X31.1288 Y10.9961 F120.00
G01 X31.1343 Y11.1100 F120.00
G01 X31.1288 Y11.2239 F120.00
G01 X31.1120 Y11.3368 F120.00
G01 X31.0843 Y11.4474 F120.00
G01 X31.0487 Y11.5474 F120.00
G01 X31.0426 Y11.5621 F120.00
G01 X31.0007 Y11.6508 F120.00
G01 X30.9932 Y11.6649 F120.00
G01 X30.9385 Y11.7558 F120.00
G01 X30.8754 Y11.8411 F120.00
G01 X30.8653 Y11.8534 F120.00
G01 X30.6346 Y12.4994 F120.00
G01 X30.6346 Y18.2675 F120.00
G01 X33.2945 Y20.9274 F120.00
G01 X35.1790 Y20.9274 F120.00
G01 X35.2439 Y20.9306 F120.00
G01 X35.3083 Y20.9401 F120.00
G01 X35.3713 Y20.9559 F120.00
G01 X35.4251 Y20.9750 F120.00
G01 X35.4399 Y20.9811 F120.00
G01 X35.4913 Y21.0056 F120.00
G01 X35.5404 Y21.0348 F120.00
G01 X35.5536 Y21.0437 F120.00
G01 X35.5993 Y21.0778 F120.00
G01 X35.6418 Y21.1160 F120.00
G01 X35.6530 Y21.1272 F120.00
G01 X35.6912 Y21.1697 F120.00
G01 X35.7253 Y21.2154 F120.00
G01 X35.7342 Y21.2286 F120.00
G01 X35.7634 Y21.2777 F120.00
G01 X35.7879 Y21.3291 F120.00
G01 X35.7940 Y21.3439 F120.00
G01 X35.8131 Y21.3977 F120.00
G01 X35.8289 Y21.4607 F120.00
G01 X35.8374 Y21.5171 F120.00
G01 X35.8390 Y21.5330 F120.00
G01 X35.8416 Y21.5900 F120.00
G01 X35.8414 Y35.1880 F120.00
G01 X35.8384 Y35.2449 F120.00
G01 X35.8302 Y35.3014 F120.00
G01 X35.8271 Y35.3170 F120.00
G01 X35.8131 Y35.3723 F120.00
G01 X35.7912 Y35.4336 F120.00
G01 X35.7669 Y35.4852 F120.00
G01 X35.7594 Y35.4993 F120.00
G01 X35.7342 Y35.5414 F120.00
G01 X35.7253 Y35.5546 F120.00
G01 X35.6912 Y35.6003 F120.00
G01 X35.6503 Y35.6457 F120.00
G01 X35.1011 Y36.1950 F120.00
G01 X38.1885 Y39.2825 F120.00
G01 X38.2322 Y39.3307 F120.00
G01 X38.2709 Y39.3829 F120.00
G01 X38.3044 Y39.4387 F120.00
G01 X38.3306 Y39.4938 F120.00
G01 X38.3350 Y39.5049 F120.00
G01 X38.3541 Y39.5587 F120.00
G01 X38.3681 Y39.6140 F120.00
G01 X38.3712 Y39.6296 F120.00
G01 X38.3784 Y39.6781 F120.00
G01 X38.3800 Y39.6940 F120.00
G01 X38.3826 Y39.7510 F120.00
G01 X38.3826 Y40.3964 F120.00
G01 X38.6123 Y41.0396 F120.00
G01 X38.6224 Y41.0519 F120.00
G01 X38.6855 Y41.1372 F120.00
G01 X38.7441 Y41.2351 F120.00
G01 X38.7929 Y41.3382 F120.00
G01 X38.8301 Y41.4418 F120.00
G01 X38.8334 Y41.4533 F120.00
G01 X38.8590 Y41.5562 F120.00
G01 X38.8758 Y41.6691 F120.00
G01 X38.8813 Y41.7830 F120.00
G01 X38.8761 Y41.8930 F120.00
G01 X38.8748 Y41.9048 F120.00
G01 X38.8604 Y42.0019 F120.00
G01 X38.8573 Y42.0175 F120.00
G01 X38.8313 Y42.1204 F120.00
G01 X38.7929 Y42.2278 F120.00
G01 X38.7477 Y42.3238 F120.00
G01 X38.7402 Y42.3379 F120.00
G01 X38.6855 Y42.4288 F120.00
G01 X38.6175 Y42.5204 F120.00
G01 X38.5464 Y42.5991 F120.00
G01 X38.5351 Y42.6104 F120.00
G01 X38.4564 Y42.6815 F120.00
G01 X38.3648 Y42.7495 F120.00
G01 X38.2739 Y42.8042 F120.00
G01 X38.2598 Y42.8117 F120.00
G01 X38.1638 Y42.8569 F120.00
G01 X38.0564 Y42.8953 F120.00
G01 X37.9458 Y42.9230 F120.00
G01 X37.8408 Y42.9388 F120.00
G01 X37.8250 Y42.9403 F120.00
G01 X37.7190 Y42.9453 F120.00
G01 X37.6051 Y42.9398 F120.00
G01 X37.5001 Y42.9244 F120.00
G01 X37.4845 Y42.9213 F120.00
G01 X37.3893 Y42.8974 F120.00
G01 X37.3740 Y42.8928 F120.00
G01 X37.2742 Y42.8569 F120.00
G01 X37.1711 Y42.8081 F120.00
G01 X37.0732 Y42.7495 F120.00
G01 X36.9879 Y42.6864 F120.00
G01 X36.9756 Y42.6763 F120.00
G01 X36.9029 Y42.6104 F120.00
G01 X36.8916 Y42.5991 F120.00
G01 X36.8205 Y42.5204 F120.00
G01 X36.7548 Y42.4321 F120.00
G01 X36.7483 Y42.4220 F120.00
G01 X36.6939 Y42.3309 F120.00
G01 X36.6451 Y42.2278 F120.00
G01 X36.6067 Y42.1204 F120.00
G01 X36.5807 Y42.0175 F120.00
G01 X36.5776 Y42.0019 F120.00
G01 X36.5632 Y41.9048 F120.00
G01 X36.5617 Y41.8890 F120.00
G01 X36.5567 Y41.7830 F120.00
G01 X36.5617 Y41.6770 F120.00
G01 X36.5627 Y41.6651 F120.00
G01 X36.5776 Y41.5641 F120.00
G01 X36.5807 Y41.5485 F120.00
G01 X36.6067 Y41.4456 F120.00
G01 X36.6437 Y41.3419 F120.00
G01 X36.6484 Y41.3309 F120.00
G01 X36.6939 Y41.2351 F120.00
G01 X36.7483 Y41.1440 F120.00
G01 X36.7571 Y41.1307 F120.00
G01 X36.8156 Y41.0519 F120.00
G01 X36.8257 Y41.0396 F120.00
G01 X37.0574 Y40.3908 F120.00
G01 X37.0574 Y40.0255 F120.00
G01 X33.8895 Y36.8576 F120.00
G01 X21.9646 Y36.8576 F120.00
G01 X21.1201 Y37.1391 F120.00
G01 X21.0956 Y37.1573 F120.00
G01 X21.0857 Y37.1640 F120.00
G01 X20.9947 Y37.2186 F120.00
G01 X20.9840 Y37.2241 F120.00
G01 X20.8917 Y37.2678 F120.00
G01 X20.8806 Y37.2722 F120.00
G01 X20.7806 Y37.3078 F120.00
G01 X20.6776 Y37.3338 F120.00
G01 X20.6620 Y37.3369 F120.00
G01 X20.5570 Y37.3522 F120.00
G01 X20.4470 Y37.3578 F120.00
G01 X19.9380 Y37.3578 F120.00
G01 X19.8280 Y37.3522 F120.00
G01 X19.7230 Y37.3369 F120.00
G01 X19.7074 Y37.3338 F120.00
G01 X19.6121 Y37.3099 F120.00
G01 X19.5969 Y37.3053 F120.00
G01 X19.4970 Y37.2693 F120.00
G01 X19.3938 Y37.2205 F120.00
G01 X19.2960 Y37.1619 F120.00
G01 X19.2106 Y37.0988 F120.00
G01 X19.1983 Y37.0887 F120.00
G01 X19.1255 Y37.0228 F120.00
G01 X19.1142 Y37.0115 F120.00
G01 X19.0431 Y36.9327 F120.00
G01 X18.9751 Y36.8410 F120.00
G01 X18.9204 Y36.7501 F120.00
G01 X18.9129 Y36.7360 F120.00
G01 X18.8677 Y36.6400 F120.00
G01 X18.8292 Y36.5326 F120.00
G01 X18.8015 Y36.4219 F120.00
G01 X18.7857 Y36.3169 F120.00
G01 X18.7842 Y36.3010 F120.00
G01 X18.7792 Y36.1950 F120.00
G01 X18.7842 Y36.0890 F120.00
G01 X18.7857 Y36.0731 F120.00
G01 X18.8001 Y35.9760 F120.00
G01 X18.8032 Y35.9604 F120.00
G01 X18.8292 Y35.8574 F120.00
G01 X18.8677 Y35.7500 F120.00
G01 X18.9165 Y35.6468 F120.00
G01 X18.9751 Y35.5490 F120.00
G01 X19.0431 Y35.4573 F120.00
G01 X19.1197 Y35.3727 F120.00
G01 X19.2043 Y35.2961 F120.00
G01 X19.2894 Y35.2327 F120.00
G01 X19.3027 Y35.2239 F120.00
G01 X19.3938 Y35.1695 F120.00
G01 X19.4897 Y35.1239 F120.00
G01 X19.5044 Y35.1178 F120.00
G01 X19.5969 Y35.0847 F120.00
G01 X19.6121 Y35.0801 F120.00
G01 X19.7151 Y35.0545 F120.00
G01 X19.8280 Y35.0378 F120.00
G01 X19.9420 Y35.0322 F120.00
G01 X20.4470 Y35.0322 F120.00
G01 X20.5570 Y35.0378 F120.00
G01 X20.6620 Y35.0531 F120.00
G01 X20.6738 Y35.0553 F120.00
G01 X20.7806 Y35.0822 F120.00
G01 X20.8806 Y35.1178 F120.00
G01 X20.8917 Y35.1222 F120.00
G01 X20.9840 Y35.1659 F120.00
G01 X20.9947 Y35.1714 F120.00
G01 X21.0857 Y35.2260 F120.00
G01 X21.0956 Y35.2327 F120.00
G01 X21.1176 Y35.2491 F120.00
G01 X21.9676 Y35.5324 F120.00
G01 X33.8895 Y35.5324 F120.00
G01 X34.5164 Y34.9055 F120.00
G01 X34.5164 Y22.2526 F120.00
G01 X33.0200 Y22.2526 F120.00
G01 X32.9630 Y22.2500 F120.00
G01 X32.9471 Y22.2484 F120.00
G01 X32.8907 Y22.2399 F120.00
G01 X32.8353 Y22.2262 F120.00
G01 X32.8201 Y22.2216 F120.00
G01 X32.7664 Y22.2022 F120.00
G01 X32.7148 Y22.1779 F120.00
G01 X32.7007 Y22.1704 F120.00
G01 X32.6519 Y22.1409 F120.00
G01 X32.5997 Y22.1022 F120.00
G01 X32.5515 Y22.0585 F120.00
G01 X29.5035 Y19.0105 F120.00
G01 X29.4598 Y18.9623 F120.00
G01 X29.4257 Y18.9166 F120.00
G01 X29.4168 Y18.9034 F120.00
G01 X29.3916 Y18.8613 F120.00
G01 X29.3841 Y18.8472 F120.00
G01 X29.3631 Y18.8029 F120.00
G01 X29.3570 Y18.7881 F120.00
G01 X29.3379 Y18.7343 F120.00
G01 X29.3239 Y18.6790 F120.00
G01 X29.3208 Y18.6634 F120.00
G01 X29.3126 Y18.6069 F120.00
G01 X29.3094 Y18.5420 F120.00
G01 X29.3094 Y12.4994 F120.00
G01 X29.0787 Y11.8534 F120.00
G01 X29.0686 Y11.8411 F120.00
G01 X29.0055 Y11.7558 F120.00
G01 X28.9508 Y11.6649 F120.00
G01 X28.9433 Y11.6508 F120.00
G01 X28.9014 Y11.5621 F120.00
G01 X28.8953 Y11.5474 F120.00
G01 X28.8597 Y11.4474 F120.00
G01 X28.8320 Y11.3368 F120.00
G01 X28.8152 Y11.2239 F120.00
G01 X28.8097 Y11.1100 F120.00
G01 X28.8152 Y10.9961 F120.00
G01 X28.8320 Y10.8832 F120.00
G01 X28.8597 Y10.7726 F120.00
G01 X28.8953 Y10.6726 F120.00
G01 X28.9014 Y10.6579 F120.00
G01 X28.9469 Y10.5621 F120.00
G01 X29.0013 Y10.4710 F120.00
G01 X29.0101 Y10.4577 F120.00
G01 X29.0686 Y10.3789 F120.00
G01 X29.0793 Y10.3658 F120.00
G01 X29.3094 Y9.7216 F120.00
G01 X29.3094 Y7.5885 F120.00
G01 X27.3531 Y5.6327 F120.00
G01 X26.3229 Y5.3425 F120.00
G00 Z2.0000
G00 X26.3710 Y5.3561
G01 F60.00
G01 Z-0.4193
G01 F120.00
G01 X26.3229 Y5.3425 F120.00
G01 X26.2971 Y5.3412 F120.00
G01 X26.2892 Y5.3404 F120.00
G01 X26.2731 Y5.3380 F120.00
G01 X26.2892 Y5.3404 F120.00
G01 X26.2971 Y5.3412 F120.00
G01 X26.3229 Y5.3425 F120.00
G00 Z2.0000
G00 X28.0052 Y15.9980
G01 F60.00
G01 Z-0.4000
G01 F120.00
G01 X27.9978 Y16.1428 F120.00
G01 X27.9754 Y16.2942 F120.00
G01 X27.9382 Y16.4427 F120.00
G01 X27.8867 Y16.5867 F120.00
G01 X27.8212 Y16.7251 F120.00
G01 X27.7426 Y16.8563 F120.00
G01 X27.6514 Y16.9792 F120.00
G01 X27.5486 Y17.0926 F120.00
G01 X27.4352 Y17.1954 F120.00
G01 X27.3123 Y17.2866 F120.00
G01 X27.1811 Y17.3652 F120.00
G01 X27.0427 Y17.4307 F120.00
G01 X26.8987 Y17.4822 F120.00
G01 X26.7502 Y17.5194 F120.00
G01 X26.5988 Y17.5418 F120.00
G01 X26.4460 Y17.5493 F120.00
G01 X26.2932 Y17.5418 F120.00
G01 X26.1418 Y17.5194 F120.00
G01 X25.9933 Y17.4822 F120.00
G01 X25.8493 Y17.4307 F120.00
G01 X25.7109 Y17.3652 F120.00
G01 X25.5797 Y17.2866 F120.00
G01 X25.4568 Y17.1954 F120.00
G01 X25.3434 Y17.0926 F120.00
G01 X25.2406 Y16.9792 F120.00
G01 X25.1494 Y16.8563 F120.00
G01 X25.0708 Y16.7251 F120.00
G01 X25.0053 Y16.5867 F120.00
G01 X24.9538 Y16.4427 F120.00
G01 X24.9166 Y16.2942 F120.00
G01 X24.8942 Y16.1428 F120.00
G01 X24.8867 Y15.9900 F120.00
G01 X24.8942 Y15.8372 F120.00
G01 X24.9166 Y15.6858 F120.00
G01 X24.9538 Y15.5373 F120.00
G01 X25.0053 Y15.3933 F120.00
G01 X25.0708 Y15.2549 F120.00
G01 X25.1494 Y15.1237 F120.00
G01 X25.2406 Y15.0008 F120.00
G01 X25.3434 Y14.8874 F120.00
G01 X25.4568 Y14.7846 F120.00
G01 X25.5797 Y14.6934 F120.00
G01 X25.7109 Y14.6148 F120.00
G01 X25.8493 Y14.5493 F120.00
G01 X25.9933 Y14.4978 F120.00
G01 X26.1418 Y14.4606 F120.00
G01 X26.2932 Y14.4382 F120.00
G01 X26.4460 Y14.4307 F120.00
G01 X26.5988 Y14.4382 F120.00
G01 X26.7502 Y14.4606 F120.00
G01 X26.8987 Y14.4978 F120.00
G01 X27.0427 Y14.5493 F120.00
G01 X27.1811 Y14.6148 F120.00
G01 X27.3123 Y14.6934 F120.00
G01 X27.4352 Y14.7846 F120.00
G01 X27.5486 Y14.8874 F120.00
G01 X27.6514 Y15.0008 F120.00
G01 X27.7426 Y15.1237 F120.00
G01 X27.8212 Y15.2549 F120.00
G01 X27.8867 Y15.3933 F120.00
G01 X27.9382 Y15.5373 F120.00
G01 X27.9754 Y15.6858 F120.00
G01 X27.9978 Y15.8372 F120.00
G01 X28.0052 Y15.9820 F120.00
G01 X28.0052 Y15.9980 F120.00
G00 Z2.0000
G00 X28.0034 Y15.9480
G01 F60.00
G01 Z-0.4000
G01 F120.00
G01 X28.0052 Y15.9820 F120.00
G01 X28.0052 Y15.9980 F120.00
G01 X28.0026 Y16.0479 F120.00
G01 X28.0052 Y15.9980 F120.00
G00 X28.0052 Y15.9980
G01 F60.00
G01 Z-0.4193
G01 F120.00
G01 X27.9978 Y16.1428 F120.00
G01 X27.9754 Y16.2942 F120.00
G01 X27.9382 Y16.4427 F120.00
G01 X27.8867 Y16.5867 F120.00
G01 X27.8212 Y16.7251 F120.00
G01 X27.7426 Y16.8563 F120.00
G01 X27.6514 Y16.9792 F120.00
G01 X27.5486 Y17.0926 F120.00
G01 X27.4352 Y17.1954 F120.00
G01 X27.3123 Y17.2866 F120.00
G01 X27.1811 Y17.3652 F120.00
G01 X27.0427 Y17.4307 F120.00
G01 X26.8987 Y17.4822 F120.00
G01 X26.7502 Y17.5194 F120.00
G01 X26.5988 Y17.5418 F120.00
G01 X26.4460 Y17.5493 F120.00
G01 X26.2932 Y17.5418 F120.00
G01 X26.1418 Y17.5194 F120.00
G01 X25.9933 Y17.4822 F120.00
G01 X25.8493 Y17.4307 F120.00
G01 X25.7109 Y17.3652 F120.00
G01 X25.5797 Y17.2866 F120.00
G01 X25.4568 Y17.1954 F120.00
G01 X25.3434 Y17.0926 F120.00
G01 X25.2406 Y16.9792 F120.00
G01 X25.1494 Y16.8563 F120.00
G01 X25.0708 Y16.7251 F120.00
G01 X25.0053 Y16.5867 F120.00
G01 X24.9538 Y16.4427 F120.00
G01 X24.9166 Y16.2942 F120.00
G01 X24.8942 Y16.1428 F120.00
G01 X24.8867 Y15.9900 F120.00
G01 X24.8942 Y15.8372 F120.00
G01 X24.9166 Y15.6858 F120.00
G01 X24.9538 Y15.5373 F120.00
G01 X25.0053 Y15.3933 F120.00
G01 X25.0708 Y15.2549 F120.00
G01 X25.1494 Y15.1237 F120.00
G01 X25.2406 Y15.0008 F120.00
G01 X25.3434 Y14.8874 F120.00
G01 X25.4568 Y14.7846 F120.00
G01 X25.5797 Y14.6934 F120.00
G01 X25.7109 Y14.6148 F120.00
G01 X25.8493 Y14.5493 F120.00
G01 X25.9933 Y14.4978 F120.00
G01 X26.1418 Y14.4606 F120.00
G01 X26.2932 Y14.4382 F120.00
G01 X26.4460 Y14.4307 F120.00
G01 X26.5988 Y14.4382 F120.00
G01 X26.7502 Y14.4606 F120.00
G01 X26.8987 Y14.4978 F120.00
G01 X27.0427 Y14.5493 F120.00
G01 X27.1811 Y14.6148 F120.00
G01 X27.3123 Y14.6934 F120.00
G01 X27.4352 Y14.7846 F120.00
G01 X27.5486 Y14.8874 F120.00
G01 X27.6514 Y15.0008 F120.00
G01 X27.7426 Y15.1237 F120.00
G01 X27.8212 Y15.2549 F120.00
G01 X27.8867 Y15.3933 F120.00
G01 X27.9382 Y15.5373 F120.00
G01 X27.9754 Y15.6858 F120.00
G01 X27.9978 Y15.8372 F120.00
G01 X28.0052 Y15.9820 F120.00
G01 X28.0052 Y15.9980 F120.00
G00 Z2.0000
G00 X28.0034 Y15.9480
G01 F60.00
G01 Z-0.4193
G01 F120.00
G01 X28.0052 Y15.9820 F120.00
G01 X28.0052 Y15.9980 F120.00
G01 X28.0026 Y16.0479 F120.00
G01 X28.0052 Y15.9980 F120.00
G00 Z2.0000
G00 X32.0901 Y15.5817
G01 F60.00
G01 Z-0.4000
G01 F120.00
G01 X32.6124 Y14.8319 F120.00
G01 X32.6124 Y6.3500 F120.00
G01 X32.6156 Y6.2851 F120.00
G01 X32.6238 Y6.2286 F120.00
G01 X32.6269 Y6.2130 F120.00
G01 X32.6388 Y6.1653 F120.00
G01 X32.6421 Y6.1539 F120.00
G01 X32.6399 Y6.1432 F120.00
G01 X32.6384 Y6.1313 F120.00
G01 X32.6378 Y6.1234 F120.00
G01 X32.6377 Y6.1114 F120.00
G01 X32.6385 Y6.0994 F120.00
G01 X32.6402 Y6.0876 F120.00
G01 X32.6417 Y6.0798 F120.00
G01 X32.6449 Y6.0682 F120.00
G01 X32.6474 Y6.0606 F120.00
G01 X32.6519 Y6.0495 F120.00
G01 X32.6572 Y6.0388 F120.00
G01 X32.6612 Y6.0318 F120.00
G01 X32.6678 Y6.0218 F120.00
G01 X32.6725 Y6.0154 F120.00
G01 X32.6830 Y6.0034 F120.00
G01 X34.0827 Y4.5495 F120.00
G01 X34.0827 Y2.9990 F120.00
G01 X34.0839 Y2.9831 F120.00
G01 X34.0866 Y2.9674 F120.00
G01 X34.0908 Y2.9521 F120.00
G01 X34.0966 Y2.9372 F120.00
G01 X34.1037 Y2.9230 F120.00
G01 X34.1123 Y2.9095 F120.00
G01 X34.1195 Y2.9000 F120.00
G01 X34.1302 Y2.8882 F120.00
G01 X34.1420 Y2.8775 F120.00
G01 X34.1515 Y2.8703 F120.00
G01 X34.1650 Y2.8617 F120.00
G01 X34.1792 Y2.8546 F120.00
G01 X34.1941 Y2.8488 F120.00
G01 X34.2094 Y2.8446 F120.00
G01 X34.2251 Y2.8419 F120.00
G01 X34.2410 Y2.8407 F120.00
G01 X35.8580 Y2.8407 F120.00
G01 X35.8699 Y2.8411 F120.00
G01 X35.8818 Y2.8424 F120.00
G01 X35.8936 Y2.8446 F120.00
G01 X35.9051 Y2.8476 F120.00
G01 X35.9201 Y2.8530 F120.00
G01 X35.9310 Y2.8580 F120.00
G01 X35.9414 Y2.8637 F120.00
G01 X35.9515 Y2.8702 F120.00
G01 X35.9610 Y2.8775 F120.00
G01 X35.9699 Y2.8854 F120.00
G01 X35.9783 Y2.8939 F120.00
G01 X35.9860 Y2.9031 F120.00
G01 X35.9930 Y2.9128 F120.00
G01 X35.9992 Y2.9229 F120.00
G01 X36.0047 Y2.9335 F120.00
G01 X36.0094 Y2.9445 F120.00
G01 X36.0133 Y2.9558 F120.00
G01 X36.0164 Y2.9673 F120.00
G01 X36.0191 Y2.9830 F120.00
G01 X36.0201 Y2.9949 F120.00
G01 X36.0213 Y4.6159 F120.00
G01 X36.0212 Y4.6238 F120.00
G01 X36.0201 Y4.6357 F120.00
G01 X36.0183 Y4.6475 F120.00
G01 X36.0165 Y4.6552 F120.00
G01 X36.0144 Y4.6629 F120.00
G01 X36.0106 Y4.6742 F120.00
G01 X36.0075 Y4.6815 F120.00
G01 X36.0023 Y4.6922 F120.00
G01 X35.9942 Y4.7059 F120.00
G01 X35.9872 Y4.7156 F120.00
G01 X35.9796 Y4.7247 F120.00
G01 X35.9684 Y4.7360 F120.00
G01 X34.3541 Y6.2080 F120.00
G01 X33.9376 Y6.6245 F120.00
G01 X33.9376 Y15.0137 F120.00
G01 X34.2199 Y15.9006 F120.00
G01 X34.2656 Y15.9772 F120.00
G01 X34.3233 Y16.0989 F120.00
G01 X34.3277 Y16.1100 F120.00
G01 X34.3715 Y16.2330 F120.00
G01 X34.4035 Y16.3597 F120.00
G01 X34.4066 Y16.3753 F120.00
G01 X34.4255 Y16.5046 F120.00
G01 X34.4323 Y16.6430 F120.00
G01 X34.4255 Y16.7814 F120.00
G01 X34.4052 Y16.9185 F120.00
G01 X34.3715 Y17.0530 F120.00
G01 X34.3277 Y17.1760 F120.00
G01 X34.3216 Y17.1908 F120.00
G01 X34.2656 Y17.3088 F120.00
G01 X34.1986 Y17.4209 F120.00
G01 X34.1897 Y17.4342 F120.00
G01 X34.1167 Y17.5327 F120.00
G01 X34.1066 Y17.5450 F120.00
G01 X34.0187 Y17.6417 F120.00
G01 X33.9190 Y17.7322 F120.00
G01 X33.9097 Y17.7397 F120.00
G01 X33.8047 Y17.8173 F120.00
G01 X33.6858 Y17.8886 F120.00
G01 X33.5605 Y17.9478 F120.00
G01 X33.4300 Y17.9945 F120.00
G01 X33.2955 Y18.0282 F120.00
G01 X33.1584 Y18.0485 F120.00
G01 X33.0200 Y18.0553 F120.00
G01 X32.8816 Y18.0485 F120.00
G01 X32.7445 Y18.0282 F120.00
G01 X32.6100 Y17.9945 F120.00
G01 X32.4795 Y17.9478 F120.00
G01 X32.3542 Y17.8886 F120.00
G01 X32.2353 Y17.8173 F120.00
G01 X32.1240 Y17.7348 F120.00
G01 X32.0213 Y17.6417 F120.00
G01 X31.9308 Y17.5420 F120.00
G01 X31.9233 Y17.5327 F120.00
G01 X31.8457 Y17.4277 F120.00
G01 X31.7744 Y17.3088 F120.00
G01 X31.7152 Y17.1835 F120.00
G01 X31.6685 Y17.0530 F120.00
G01 X31.6348 Y16.9185 F120.00
G01 X31.6145 Y16.7814 F120.00
G01 X31.6077 Y16.6430 F120.00
G01 X31.6141 Y16.5085 F120.00
G01 X31.6154 Y16.4967 F120.00
G01 X31.6348 Y16.3675 F120.00
G01 X31.6685 Y16.2330 F120.00
G01 X31.7152 Y16.1025 F120.00
G01 X31.7726 Y15.9808 F120.00
G01 X31.7783 Y15.9703 F120.00
G01 X31.8457 Y15.8583 F120.00
G01 X31.9258 Y15.7501 F120.00
G01 X31.9334 Y15.7410 F120.00
G01 X32.0213 Y15.6443 F120.00
G01 X32.0901 Y15.5817 F120.00
G00 Z2.0000
G00 X32.0531 Y15.6154
G01 F60.00
G01 Z-0.4000
G01 F120.00
G01 X32.0901 Y15.5817 F120.00
G01 X32.1187 Y15.5407 F120.00
G01 X32.0901 Y15.5817 F120.00
G00 X32.0901 Y15.5817
G01 F60.00
G01 Z-0.4193
G01 F120.00
G01 X32.6124 Y14.8319 F120.00
G01 X32.6124 Y6.3500 F120.00
G01 X32.6156 Y6.2851 F120.00
G01 X32.6238 Y6.2286 F120.00
G01 X32.6269 Y6.2130 F120.00
G01 X32.6388 Y6.1653 F120.00
G01 X32.6421 Y6.1539 F120.00
G01 X32.6399 Y6.1432 F120.00
G01 X32.6384 Y6.1313 F120.00
G01 X32.6378 Y6.1234 F120.00
G01 X32.6377 Y6.1114 F120.00
G01 X32.6385 Y6.0994 F120.00
G01 X32.6402 Y6.0876 F120.00
G01 X32.6417 Y6.0798 F120.00
G01 X32.6449 Y6.0682 F120.00
G01 X32.6474 Y6.0606 F120.00
G01 X32.6519 Y6.0495 F120.00
G01 X32.6572 Y6.0388 F120.00
G01 X32.6612 Y6.0318 F120.00
G01 X32.6678 Y6.0218 F120.00
G01 X32.6725 Y6.0154 F120.00
G01 X32.6830 Y6.0034 F120.00
G01 X34.0827 Y4.5495 F120.00
G01 X34.0827 Y2.9990 F120.00
G01 X34.0839 Y2.9831 F120.00
G01 X34.0866 Y2.9674 F120.00
G01 X34.0908 Y2.9521 F120.00
G01 X34.0966 Y2.9372 F120.00
G01 X34.1037 Y2.9230 F120.00
G01 X34.1123 Y2.9095 F120.00
G01 X34.1195 Y2.9000 F120.00
G01 X34.1302 Y2.8882 F120.00
G01 X34.1420 Y2.8775 F120.00
G01 X34.1515 Y2.8703 F120.00
G01 X34.1650 Y2.8617 F120.00
G01 X34.1792 Y2.8546 F120.00
G01 X34.1941 Y2.8488 F120.00
G01 X34.2094 Y2.8446 F120.00
G01 X34.2251 Y2.8419 F120.00
G01 X34.2410 Y2.8407 F120.00
G01 X35.8580 Y2.8407 F120.00
G01 X35.8699 Y2.8411 F120.00
G01 X35.8818 Y2.8424 F120.00
G01 X35.8936 Y2.8446 F120.00
G01 X35.9051 Y2.8476 F120.00
G01 X35.9201 Y2.8530 F120.00
G01 X35.9310 Y2.8580 F120.00
G01 X35.9414 Y2.8637 F120.00
G01 X35.9515 Y2.8702 F120.00
G01 X35.9610 Y2.8775 F120.00
G01 X35.9699 Y2.8854 F120.00
G01 X35.9783 Y2.8939 F120.00
G01 X35.9860 Y2.9031 F120.00
G01 X35.9930 Y2.9128 F120.00
G01 X35.9992 Y2.9229 F120.00
G01 X36.0047 Y2.9335 F120.00
G01 X36.0094 Y2.9445 F120.00
G01 X36.0133 Y2.9558 F120.00
G01 X36.0164 Y2.9673 F120.00
G01 X36.0191 Y2.9830 F120.00
G01 X36.0201 Y2.9949 F120.00
G01 X36.0213 Y4.6159 F120.00
G01 X36.0212 Y4.6238 F120.00
G01 X36.0201 Y4.6357 F120.00
G01 X36.0183 Y4.6475 F120.00
G01 X36.0165 Y4.6552 F120.00
G01 X36.0144 Y4.6629 F120.00
G01 X36.0106 Y4.6742 F120.00
G01 X36.0075 Y4.6815 F120.00
G01 X36.0023 Y4.6922 F120.00
G01 X35.9942 Y4.7059 F120.00
G01 X35.9872 Y4.7156 F120.00
G01 X35.9796 Y4.7247 F120.00
G01 X35.9684 Y4.7360 F120.00
G01 X34.3541 Y6.2080 F120.00
G01 X33.9376 Y6.6245 F120.00
G01 X33.9376 Y15.0137 F120.00
G01 X34.2199 Y15.9006 F120.00
G01 X34.2656 Y15.9772 F120.00
G01 X34.3233 Y16.0989 F120.00
G01 X34.3277 Y16.1100 F120.00
G01 X34.3715 Y16.2330 F120.00
G01 X34.4035 Y16.3597 F120.00
G01 X34.4066 Y16.3753 F120.00
G01 X34.4255 Y16.5046 F120.00
G01 X34.4323 Y16.6430 F120.00
G01 X34.4255 Y16.7814 F120.00
G01 X34.4052 Y16.9185 F120.00
G01 X34.3715 Y17.0530 F120.00
G01 X34.3277 Y17.1760 F120.00
G01 X34.3216 Y17.1908 F120.00
G01 X34.2656 Y17.3088 F120.00
G01 X34.1986 Y17.4209 F120.00
G01 X34.1897 Y17.4342 F120.00
G01 X34.1167 Y17.5327 F120.00
G01 X34.1066 Y17.5450 F120.00
G01 X34.0187 Y17.6417 F120.00
G01 X33.9190 Y17.7322 F120.00
G01 X33.9097 Y17.7397 F120.00
G01 X33.8047 Y17.8173 F120.00
G01 X33.6858 Y17.8886 F120.00
G01 X33.5605 Y17.9478 F120.00
G01 X33.4300 Y17.9945 F120.00
G01 X33.2955 Y18.0282 F120.00
G01 X33.1584 Y18.0485 F120.00
G01 X33.0200 Y18.0553 F120.00
G01 X32.8816 Y18.0485 F120.00
G01 X32.7445 Y18.0282 F120.00
G01 X32.6100 Y17.9945 F120.00
G01 X32.4795 Y17.9478 F120.00
G01 X32.3542 Y17.8886 F120.00
G01 X32.2353 Y17.8173 F120.00
G01 X32.1240 Y17.7348 F120.00
G01 X32.0213 Y17.6417 F120.00
G01 X31.9308 Y17.5420 F120.00
G01 X31.9233 Y17.5327 F120.00
G01 X31.8457 Y17.4277 F120.00
G01 X31.7744 Y17.3088 F120.00
G01 X31.7152 Y17.1835 F120.00
G01 X31.6685 Y17.0530 F120.00
G01 X31.6348 Y16.9185 F120.00
G01 X31.6145 Y16.7814 F120.00
G01 X31.6077 Y16.6430 F120.00
G01 X31.6141 Y16.5085 F120.00
G01 X31.6154 Y16.4967 F120.00
G01 X31.6348 Y16.3675 F120.00
G01 X31.6685 Y16.2330 F120.00
G01 X31.7152 Y16.1025 F120.00
G01 X31.7726 Y15.9808 F120.00
G01 X31.7783 Y15.9703 F120.00
G01 X31.8457 Y15.8583 F120.00
G01 X31.9258 Y15.7501 F120.00
G01 X31.9334 Y15.7410 F120.00
G01 X32.0213 Y15.6443 F120.00
G01 X32.0901 Y15.5817 F120.00
G00 Z2.0000
G00 X32.0531 Y15.6154
G01 F60.00
G01 Z-0.4193
G01 F120.00
G01 X32.0901 Y15.5817 F120.00
G01 X32.1187 Y15.5407 F120.00
G01 X32.0901 Y15.5817 F120.00
G00 Z2.0000
G00 X26.6792 Y22.4870
G01 F60.00
G01 Z-0.4000
G01 F120.00
G01 X26.6725 Y22.6174 F120.00
G01 X26.6522 Y22.7545 F120.00
G01 X26.6185 Y22.8890 F120.00
G01 X26.5718 Y23.0195 F120.00
G01 X26.5126 Y23.1448 F120.00
G01 X26.4413 Y23.2637 F120.00
G01 X26.3588 Y23.3750 F120.00
G01 X26.2657 Y23.4777 F120.00
G01 X26.1630 Y23.5708 F120.00
G01 X26.0517 Y23.6533 F120.00
G01 X25.9328 Y23.7246 F120.00
G01 X25.8075 Y23.7838 F120.00
G01 X25.6770 Y23.8305 F120.00
G01 X25.5425 Y23.8642 F120.00
G01 X25.4054 Y23.8845 F120.00
G01 X25.2670 Y23.8913 F120.00
G01 X25.1286 Y23.8845 F120.00
G01 X24.9915 Y23.8642 F120.00
G01 X24.8570 Y23.8305 F120.00
G01 X24.7265 Y23.7838 F120.00
G01 X24.6012 Y23.7246 F120.00
G01 X24.4823 Y23.6533 F120.00
G01 X24.3710 Y23.5708 F120.00
G01 X24.2683 Y23.4777 F120.00
G01 X24.1752 Y23.3750 F120.00
G01 X24.0927 Y23.2637 F120.00
G01 X24.0214 Y23.1448 F120.00
G01 X23.9622 Y23.0195 F120.00
G01 X23.9155 Y22.8890 F120.00
G01 X23.8818 Y22.7545 F120.00
G01 X23.8615 Y22.6174 F120.00
G01 X23.8547 Y22.4790 F120.00
G01 X23.8615 Y22.3406 F120.00
G01 X23.8818 Y22.2035 F120.00
G01 X23.9155 Y22.0690 F120.00
G01 X23.9622 Y21.9385 F120.00
G01 X24.0214 Y21.8132 F120.00
G01 X24.0927 Y21.6943 F120.00
G01 X24.1752 Y21.5830 F120.00
G01 X24.2683 Y21.4803 F120.00
G01 X24.3710 Y21.3872 F120.00
G01 X24.4823 Y21.3047 F120.00
G01 X24.6012 Y21.2334 F120.00
G01 X24.7265 Y21.1742 F120.00
G01 X24.8570 Y21.1275 F120.00
G01 X24.9915 Y21.0938 F120.00
G01 X25.1286 Y21.0735 F120.00
G01 X25.2670 Y21.0667 F120.00
G01 X25.4054 Y21.0735 F120.00
G01 X25.5425 Y21.0938 F120.00
G01 X25.6770 Y21.1275 F120.00
G01 X25.8075 Y21.1742 F120.00
G01 X25.9328 Y21.2334 F120.00
G01 X26.0517 Y21.3047 F120.00
G01 X26.1630 Y21.3872 F120.00
G01 X26.2657 Y21.4803 F120.00
G01 X26.3588 Y21.5830 F120.00
G01 X26.4413 Y21.6943 F120.00
G01 X26.5126 Y21.8132 F120.00
G01 X26.5718 Y21.9385 F120.00
G01 X26.6185 Y22.0690 F120.00
G01 X26.6522 Y22.2035 F120.00
G01 X26.6725 Y22.3406 F120.00
G01 X26.6792 Y22.4710 F120.00
G01 X26.6792 Y22.4870 F120.00
G00 Z2.0000
G00 X26.6774 Y22.4370
G01 F60.00
G01 Z-0.4000
G01 F120.00
G01 X26.6792 Y22.4710 F120.00
G01 X26.6792 Y22.4870 F120.00
G01 X26.6766 Y22.5369 F120.00
G01 X26.6792 Y22.4870 F120.00
G00 X26.6792 Y22.4870
G01 F60.00
G01 Z-0.4193
G01 F120.00
G01 X26.6725 Y22.6174 F120.00
G01 X26.6522 Y22.7545 F120.00
G01 X26.6185 Y22.8890 F120.00
G01 X26.5718 Y23.0195 F120.00
G01 X26.5126 Y23.1448 F120.00
G01 X26.4413 Y23.2637 F120.00
G01 X26.3588 Y23.3750 F120.00
G01 X26.2657 Y23.4777 F120.00
G01 X26.1630 Y23.5708 F120.00
G01 X26.0517 Y23.6533 F120.00
G01 X25.9328 Y23.7246 F120.00
G01 X25.8075 Y23.7838 F120.00
G01 X25.6770 Y23.8305 F120.00
G01 X25.5425 Y23.8642 F120.00
G01 X25.4054 Y23.8845 F120.00
G01 X25.2670 Y23.8913 F120.00
G01 X25.1286 Y23.8845 F120.00
G01 X24.9915 Y23.8642 F120.00
G01 X24.8570 Y23.8305 F120.00
G01 X24.7265 Y23.7838 F120.00
G01 X24.6012 Y23.7246 F120.00
G01 X24.4823 Y23.6533 F120.00
G01 X24.3710 Y23.5708 F120.00
G01 X24.2683 Y23.4777 F120.00
G01 X24.1752 Y23.3750 F120.00
G01 X24.0927 Y23.2637 F120.00
G01 X24.0214 Y23.1448 F120.00
G01 X23.9622 Y23.0195 F120.00
G01 X23.9155 Y22.8890 F120.00
G01 X23.8818 Y22.7545 F120.00
G01 X23.8615 Y22.6174 F120.00
G01 X23.8547 Y22.4790 F120.00
G01 X23.8615 Y22.3406 F120.00
G01 X23.8818 Y22.2035 F120.00
G01 X23.9155 Y22.0690 F120.00
G01 X23.9622 Y21.9385 F120.00
G01 X24.0214 Y21.8132 F120.00
G01 X24.0927 Y21.6943 F120.00
G01 X24.1752 Y21.5830 F120.00
G01 X24.2683 Y21.4803 F120.00
G01 X24.3710 Y21.3872 F120.00
G01 X24.4823 Y21.3047 F120.00
G01 X24.6012 Y21.2334 F120.00
G01 X24.7265 Y21.1742 F120.00
G01 X24.8570 Y21.1275 F120.00
G01 X24.9915 Y21.0938 F120.00
G01 X25.1286 Y21.0735 F120.00
G01 X25.2670 Y21.0667 F120.00
G01 X25.4054 Y21.0735 F120.00
G01 X25.5425 Y21.0938 F120.00
G01 X25.6770 Y21.1275 F120.00
G01 X25.8075 Y21.1742 F120.00
G01 X25.9328 Y21.2334 F120.00
G01 X26.0517 Y21.3047 F120.00
G01 X26.1630 Y21.3872 F120.00
G01 X26.2657 Y21.4803 F120.00
G01 X26.3588 Y21.5830 F120.00
G01 X26.4413 Y21.6943 F120.00
G01 X26.5126 Y21.8132 F120.00
G01 X26.5718 Y21.9385 F120.00
G01 X26.6185 Y22.0690 F120.00
G01 X26.6522 Y22.2035 F120.00
G01 X26.6725 Y22.3406 F120.00
G01 X26.6792 Y22.4710 F120.00
G01 X26.6792 Y22.4870 F120.00
G00 Z2.0000
G00 X26.6774 Y22.4370
G01 F60.00
G01 Z-0.4193
G01 F120.00
G01 X26.6792 Y22.4710 F120.00
G01 X26.6792 Y22.4870 F120.00
G01 X26.6766 Y22.5369 F120.00
G01 X26.6792 Y22.4870 F120.00
G00 Z2.0000
G00 X31.9447 Y24.6575
G01 F60.00
G01 Z-0.4000
G01 F120.00
G01 X31.9308 Y24.6420 F120.00
G01 X31.9258 Y24.6359 F120.00
G01 X31.8457 Y24.5277 F120.00
G01 X31.7744 Y24.4088 F120.00
G01 X31.7152 Y24.2835 F120.00
G01 X31.6685 Y24.1530 F120.00
G01 X31.6348 Y24.0185 F120.00
G01 X31.6145 Y23.8814 F120.00
G01 X31.6077 Y23.7430 F120.00
G01 X31.6145 Y23.6046 F120.00
G01 X31.6348 Y23.4675 F120.00
G01 X31.6685 Y23.3330 F120.00
G01 X31.7152 Y23.2025 F120.00
G01 X31.7744 Y23.0772 F120.00
G01 X31.8457 Y22.9583 F120.00
G01 X31.9282 Y22.8470 F120.00
G01 X32.0213 Y22.7443 F120.00
G01 X32.1240 Y22.6512 F120.00
G01 X32.2353 Y22.5687 F120.00
G01 X32.3542 Y22.4974 F120.00
G01 X32.4795 Y22.4382 F120.00
G01 X32.6100 Y22.3915 F120.00
G01 X32.7445 Y22.3578 F120.00
G01 X32.8816 Y22.3375 F120.00
G01 X33.0200 Y22.3307 F120.00
G01 X33.1584 Y22.3375 F120.00
G01 X33.2955 Y22.3578 F120.00
G01 X33.4300 Y22.3915 F120.00
G01 X33.5605 Y22.4382 F120.00
G01 X33.6858 Y22.4974 F120.00
G01 X33.8047 Y22.5687 F120.00
G01 X33.9160 Y22.6512 F120.00
G01 X34.0187 Y22.7443 F120.00
G01 X34.1118 Y22.8470 F120.00
G01 X34.1943 Y22.9583 F120.00
G01 X34.2656 Y23.0772 F120.00
G01 X34.3248 Y23.2025 F120.00
G01 X34.3715 Y23.3330 F120.00
G01 X34.4052 Y23.4675 F120.00
G01 X34.4255 Y23.6046 F120.00
G01 X34.4323 Y23.7430 F120.00
G01 X34.4255 Y23.8814 F120.00
G01 X34.4052 Y24.0185 F120.00
G01 X34.3737 Y24.1453 F120.00
G01 X34.3690 Y24.1605 F120.00
G01 X34.3277 Y24.2760 F120.00
G01 X34.3216 Y24.2908 F120.00
G01 X34.2656 Y24.4088 F120.00
G01 X34.1965 Y24.5243 F120.00
G01 X34.1897 Y24.5342 F120.00
G01 X34.1145 Y24.6355 F120.00
G01 X34.0927 Y24.6607 F120.00
G01 X33.6836 Y25.4798 F120.00
G01 X33.6836 Y26.6700 F120.00
G01 X33.6804 Y26.7349 F120.00
G01 X33.6722 Y26.7914 F120.00
G01 X33.6687 Y26.8086 F120.00
G01 X33.6698 Y26.8210 F120.00
G01 X33.6748 Y26.9270 F120.00
G01 X33.6748 Y27.4320 F120.00
G01 X33.6692 Y27.5420 F120.00
G01 X33.6539 Y27.6470 F120.00
G01 X33.6508 Y27.6626 F120.00
G01 X33.6248 Y27.7656 F120.00
G01 X33.5892 Y27.8656 F120.00
G01 X33.5831 Y27.8803 F120.00
G01 X33.5375 Y27.9762 F120.00
G01 X33.4831 Y28.0673 F120.00
G01 X33.4743 Y28.0806 F120.00
G01 X33.4109 Y28.1657 F120.00
G01 X33.3343 Y28.2503 F120.00
G01 X33.2557 Y28.3217 F120.00
G01 X33.2434 Y28.3318 F120.00
G01 X33.1580 Y28.3949 F120.00
G01 X33.0602 Y28.4535 F120.00
G01 X32.9570 Y28.5023 F120.00
G01 X32.8571 Y28.5383 F120.00
G01 X32.8419 Y28.5429 F120.00
G01 X32.7389 Y28.5685 F120.00
G01 X32.6260 Y28.5852 F120.00
G01 X32.5120 Y28.5908 F120.00
G01 X32.3980 Y28.5852 F120.00
G01 X32.2851 Y28.5685 F120.00
G01 X32.1744 Y28.5408 F120.00
G01 X32.0670 Y28.5023 F120.00
G01 X31.9638 Y28.4535 F120.00
G01 X31.8660 Y28.3949 F120.00
G01 X31.7743 Y28.3269 F120.00
G01 X31.6897 Y28.2503 F120.00
G01 X31.6131 Y28.1657 F120.00
G01 X31.5451 Y28.0740 F120.00
G01 X31.4865 Y27.9762 F120.00
G01 X31.4377 Y27.8730 F120.00
G01 X31.3992 Y27.7656 F120.00
G01 X31.3715 Y27.6549 F120.00
G01 X31.3548 Y27.5420 F120.00
G01 X31.3492 Y27.4320 F120.00
G01 X31.3492 Y26.9270 F120.00
G01 X31.3548 Y26.8130 F120.00
G01 X31.3715 Y26.7001 F120.00
G01 X31.3992 Y26.5894 F120.00
G01 X31.4377 Y26.4820 F120.00
G01 X31.4865 Y26.3788 F120.00
G01 X31.5451 Y26.2810 F120.00
G01 X31.6082 Y26.1956 F120.00
G01 X31.6183 Y26.1833 F120.00
G01 X31.6897 Y26.1047 F120.00
G01 X31.7683 Y26.0333 F120.00
G01 X31.7806 Y26.0232 F120.00
G01 X31.8627 Y25.9624 F120.00
G01 X31.8727 Y25.9559 F120.00
G01 X31.9638 Y25.9015 F120.00
G01 X32.0597 Y25.8559 F120.00
G01 X32.0707 Y25.8512 F120.00
G01 X32.1669 Y25.8167 F120.00
G01 X32.1821 Y25.8121 F120.00
G01 X32.2851 Y25.7865 F120.00
G01 X32.3582 Y25.7755 F120.00
G01 X32.3577 Y25.4825 F120.00
G01 X31.9447 Y24.6575 F120.00
G00 Z2.0000
G00 X31.9671 Y24.7022
G01 F60.00
G01 Z-0.4000
G01 F120.00
G01 X31.9447 Y24.6575 F120.00
G01 X31.9308 Y24.6420 F120.00
G01 X31.9258 Y24.6359 F120.00
G01 X31.9131 Y24.6188 F120.00
G01 X31.9258 Y24.6359 F120.00
G01 X31.9308 Y24.6420 F120.00
G01 X31.9447 Y24.6575 F120.00
G00 X31.9447 Y24.6575
G01 F60.00
G01 Z-0.4193
G01 F120.00
G01 X31.9308 Y24.6420 F120.00
G01 X31.9258 Y24.6359 F120.00
G01 X31.8457 Y24.5277 F120.00
G01 X31.7744 Y24.4088 F120.00
G01 X31.7152 Y24.2835 F120.00
G01 X31.6685 Y24.1530 F120.00
G01 X31.6348 Y24.0185 F120.00
G01 X31.6145 Y23.8814 F120.00
G01 X31.6077 Y23.7430 F120.00
G01 X31.6145 Y23.6046 F120.00
G01 X31.6348 Y23.4675 F120.00
G01 X31.6685 Y23.3330 F120.00
G01 X31.7152 Y23.2025 F120.00
G01 X31.7744 Y23.0772 F120.00
G01 X31.8457 Y22.9583 F120.00
G01 X31.9282 Y22.8470 F120.00
G01 X32.0213 Y22.7443 F120.00
G01 X32.1240 Y22.6512 F120.00
G01 X32.2353 Y22.5687 F120.00
G01 X32.3542 Y22.4974 F120.00
G01 X32.4795 Y22.4382 F120.00
G01 X32.6100 Y22.3915 F120.00
G01 X32.7445 Y22.3578 F120.00
G01 X32.8816 Y22.3375 F120.00
G01 X33.0200 Y22.3307 F120.00
G01 X33.1584 Y22.3375 F120.00
G01 X33.2955 Y22.3578 F120.00
G01 X33.4300 Y22.3915 F120.00
G01 X33.5605 Y22.4382 F120.00
G01 X33.6858 Y22.4974 F120.00
G01 X33.8047 Y22.5687 F120.00
G01 X33.9160 Y22.6512 F120.00
G01 X34.0187 Y22.7443 F120.00
G01 X34.1118 Y22.8470 F120.00
G01 X34.1943 Y22.9583 F120.00
G01 X34.2656 Y23.0772 F120.00
G01 X34.3248 Y23.2025 F120.00
G01 X34.3715 Y23.3330 F120.00
G01 X34.4052 Y23.4675 F120.00
G01 X34.4255 Y23.6046 F120.00
G01 X34.4323 Y23.7430 F120.00
G01 X34.4255 Y23.8814 F120.00
G01 X34.4052 Y24.0185 F120.00
G01 X34.3737 Y24.1453 F120.00
G01 X34.3690 Y24.1605 F120.00
G01 X34.3277 Y24.2760 F120.00
G01 X34.3216 Y24.2908 F120.00
G01 X34.2656 Y24.4088 F120.00
G01 X34.1965 Y24.5243 F120.00
G01 X34.1897 Y24.5342 F120.00
G01 X34.1145 Y24.6355 F120.00
G01 X34.0927 Y24.6607 F120.00
G01 X33.6836 Y25.4798 F120.00
G01 X33.6836 Y26.6700 F120.00
G01 X33.6804 Y26.7349 F120.00
G01 X33.6722 Y26.7914 F120.00
G01 X33.6687 Y26.8086 F120.00
G01 X33.6698 Y26.8210 F120.00
G01 X33.6748 Y26.9270 F120.00
G01 X33.6748 Y27.4320 F120.00
G01 X33.6692 Y27.5420 F120.00
G01 X33.6539 Y27.6470 F120.00
G01 X33.6508 Y27.6626 F120.00
G01 X33.6248 Y27.7656 F120.00
G01 X33.5892 Y27.8656 F120.00
G01 X33.5831 Y27.8803 F120.00
G01 X33.5375 Y27.9762 F120.00
G01 X33.4831 Y28.0673 F120.00
G01 X33.4743 Y28.0806 F120.00
G01 X33.4109 Y28.1657 F120.00
G01 X33.3343 Y28.2503 F120.00
G01 X33.2557 Y28.3217 F120.00
G01 X33.2434 Y28.3318 F120.00
G01 X33.1580 Y28.3949 F120.00
G01 X33.0602 Y28.4535 F120.00
G01 X32.9570 Y28.5023 F120.00
G01 X32.8571 Y28.5383 F120.00
G01 X32.8419 Y28.5429 F120.00
G01 X32.7389 Y28.5685 F120.00
G01 X32.6260 Y28.5852 F120.00
G01 X32.5120 Y28.5908 F120.00
G01 X32.3980 Y28.5852 F120.00
G01 X32.2851 Y28.5685 F120.00
G01 X32.1744 Y28.5408 F120.00
G01 X32.0670 Y28.5023 F120.00
G01 X31.9638 Y28.4535 F120.00
G01 X31.8660 Y28.3949 F120.00
G01 X31.7743 Y28.3269 F120.00
G01 X31.6897 Y28.2503 F120.00
G01 X31.6131 Y28.1657 F120.00
G01 X31.5451 Y28.0740 F120.00
G01 X31.4865 Y27.9762 F120.00
G01 X31.4377 Y27.8730 F120.00
G01 X31.3992 Y27.7656 F120.00
G01 X31.3715 Y27.6549 F120.00
G01 X31.3548 Y27.5420 F120.00
G01 X31.3492 Y27.4320 F120.00
G01 X31.3492 Y26.9270 F120.00
G01 X31.3548 Y26.8130 F120.00
G01 X31.3715 Y26.7001 F120.00
G01 X31.3992 Y26.5894 F120.00
G01 X31.4377 Y26.4820 F120.00
G01 X31.4865 Y26.3788 F120.00
G01 X31.5451 Y26.2810 F120.00
G01 X31.6082 Y26.1956 F120.00
G01 X31.6183 Y26.1833 F120.00
G01 X31.6897 Y26.1047 F120.00
G01 X31.7683 Y26.0333 F120.00
G01 X31.7806 Y26.0232 F120.00
G01 X31.8627 Y25.9624 F120.00
G01 X31.8727 Y25.9559 F120.00
G01 X31.9638 Y25.9015 F120.00
G01 X32.0597 Y25.8559 F120.00
G01 X32.0707 Y25.8512 F120.00
G01 X32.1669 Y25.8167 F120.00
G01 X32.1821 Y25.8121 F120.00
G01 X32.2851 Y25.7865 F120.00
G01 X32.3582 Y25.7755 F120.00
G01 X32.3577 Y25.4825 F120.00
G01 X31.9447 Y24.6575 F120.00
G00 Z2.0000
G00 X31.9671 Y24.7022
G01 F60.00
G01 Z-0.4193
G01 F120.00
G01 X31.9447 Y24.6575 F120.00
G01 X31.9308 Y24.6420 F120.00
G01 X31.9258 Y24.6359 F120.00
G01 X31.9131 Y24.6188 F120.00
G01 X31.9258 Y24.6359 F120.00
G01 X31.9308 Y24.6420 F120.00
G01 X31.9447 Y24.6575 F120.00
G00 Z2.0000
G00 X29.3104 Y28.9647
G01 F60.00
G01 Z-0.4000
G01 F120.00
G01 X29.3102 Y28.9561 F120.00
G01 X29.0255 Y28.1018 F120.00
G01 X29.0097 Y28.0806 F120.00
G01 X29.0030 Y28.0707 F120.00
G01 X28.9484 Y27.9797 F120.00
G01 X28.9429 Y27.9690 F120.00
G01 X28.8992 Y27.8767 F120.00
G01 X28.8948 Y27.8656 F120.00
G01 X28.8592 Y27.7656 F120.00
G01 X28.8315 Y27.6549 F120.00
G01 X28.8148 Y27.5420 F120.00
G01 X28.8092 Y27.4320 F120.00
G01 X28.8092 Y26.9230 F120.00
G01 X28.8148 Y26.8130 F120.00
G01 X28.8301 Y26.7080 F120.00
G01 X28.8332 Y26.6924 F120.00
G01 X28.8571 Y26.5971 F120.00
G01 X28.8604 Y26.5856 F120.00
G01 X28.8977 Y26.4820 F120.00
G01 X28.9465 Y26.3788 F120.00
G01 X29.0051 Y26.2810 F120.00
G01 X29.0731 Y26.1893 F120.00
G01 X29.1497 Y26.1047 F120.00
G01 X29.2343 Y26.0281 F120.00
G01 X29.3260 Y25.9601 F120.00
G01 X29.4238 Y25.9015 F120.00
G01 X29.5270 Y25.8527 F120.00
G01 X29.6344 Y25.8142 F120.00
G01 X29.7451 Y25.7865 F120.00
G01 X29.8580 Y25.7698 F120.00
G01 X29.9720 Y25.7642 F120.00
G01 X30.0860 Y25.7698 F120.00
G01 X30.1989 Y25.7865 F120.00
G01 X30.3019 Y25.8121 F120.00
G01 X30.3134 Y25.8154 F120.00
G01 X30.4170 Y25.8527 F120.00
G01 X30.5130 Y25.8979 F120.00
G01 X30.5271 Y25.9054 F120.00
G01 X30.6180 Y25.9601 F120.00
G01 X30.7034 Y26.0232 F120.00
G01 X30.7157 Y26.0333 F120.00
G01 X30.7943 Y26.1047 F120.00
G01 X30.8709 Y26.1893 F120.00
G01 X30.9389 Y26.2810 F120.00
G01 X30.9936 Y26.3719 F120.00
G01 X31.0011 Y26.3860 F120.00
G01 X31.0463 Y26.4820 F120.00
G01 X31.0823 Y26.5819 F120.00
G01 X31.0869 Y26.5971 F120.00
G01 X31.1125 Y26.7001 F120.00
G01 X31.1288 Y26.8091 F120.00
G01 X31.1298 Y26.8210 F120.00
G01 X31.1348 Y26.9270 F120.00
G01 X31.1348 Y27.4320 F120.00
G01 X31.1292 Y27.5420 F120.00
G01 X31.1139 Y27.6470 F120.00
G01 X31.1117 Y27.6588 F120.00
G01 X31.0848 Y27.7656 F120.00
G01 X31.0492 Y27.8656 F120.00
G01 X31.0448 Y27.8767 F120.00
G01 X31.0011 Y27.9690 F120.00
G01 X30.9956 Y27.9797 F120.00
G01 X30.9410 Y28.0707 F120.00
G01 X30.9343 Y28.0806 F120.00
G01 X30.9185 Y28.1018 F120.00
G01 X30.7016 Y28.7526 F120.00
G01 X32.0074 Y30.0583 F120.00
G01 X32.8806 Y30.3491 F120.00
G01 X32.9005 Y30.3501 F120.00
G01 X32.9123 Y30.3514 F120.00
G01 X33.0337 Y30.3694 F120.00
G01 X33.0493 Y30.3725 F120.00
G01 X33.1760 Y30.4045 F120.00
G01 X33.2990 Y30.4483 F120.00
G01 X33.3101 Y30.4527 F120.00
G01 X33.4247 Y30.5068 F120.00
G01 X33.4387 Y30.5143 F120.00
G01 X33.5507 Y30.5817 F120.00
G01 X33.6557 Y30.6593 F120.00
G01 X33.6680 Y30.6694 F120.00
G01 X33.7647 Y30.7573 F120.00
G01 X33.8578 Y30.8600 F120.00
G01 X33.9403 Y30.9713 F120.00
G01 X34.0077 Y31.0833 F120.00
G01 X34.0152 Y31.0973 F120.00
G01 X34.0676 Y31.2082 F120.00
G01 X34.0737 Y31.2230 F120.00
G01 X34.1175 Y31.3460 F120.00
G01 X34.1512 Y31.4805 F120.00
G01 X34.1715 Y31.6176 F120.00
G01 X34.1783 Y31.7560 F120.00
G01 X34.1715 Y31.8944 F120.00
G01 X34.1526 Y32.0237 F120.00
G01 X34.1495 Y32.0393 F120.00
G01 X34.1197 Y32.1583 F120.00
G01 X34.1150 Y32.1735 F120.00
G01 X34.0708 Y32.2965 F120.00
G01 X34.0116 Y32.4218 F120.00
G01 X33.9403 Y32.5407 F120.00
G01 X33.8578 Y32.6520 F120.00
G01 X33.7647 Y32.7547 F120.00
G01 X33.6620 Y32.8478 F120.00
G01 X33.5507 Y32.9303 F120.00
G01 X33.4318 Y33.0016 F120.00
G01 X33.3065 Y33.0608 F120.00
G01 X33.1760 Y33.1075 F120.00
G01 X33.0415 Y33.1412 F120.00
G01 X32.9044 Y33.1615 F120.00
G01 X32.7660 Y33.1683 F120.00
G01 X32.6276 Y33.1615 F120.00
G01 X32.4905 Y33.1412 F120.00
G01 X32.3560 Y33.1075 F120.00
G01 X32.2255 Y33.0608 F120.00
G01 X32.1002 Y33.0016 F120.00
G01 X31.9813 Y32.9303 F120.00
G01 X31.8700 Y32.8478 F120.00
G01 X31.7673 Y32.7547 F120.00
G01 X31.6794 Y32.6580 F120.00
G01 X31.6693 Y32.6457 F120.00
G01 X31.5917 Y32.5407 F120.00
G01 X31.5243 Y32.4287 F120.00
G01 X31.5168 Y32.4147 F120.00
G01 X31.4627 Y32.3001 F120.00
G01 X31.4583 Y32.2890 F120.00
G01 X31.4145 Y32.1660 F120.00
G01 X31.3825 Y32.0393 F120.00
G01 X31.3794 Y32.0237 F120.00
G01 X31.3614 Y31.9023 F120.00
G01 X31.3601 Y31.8905 F120.00
G01 X31.3591 Y31.8706 F120.00
G01 X31.0663 Y30.9914 F120.00
G01 X29.5045 Y29.4295 F120.00
G01 X29.4634 Y29.3844 F120.00
G01 X29.4559 Y29.3751 F120.00
G01 X29.4221 Y29.3291 F120.00
G01 X29.3926 Y29.2803 F120.00
G01 X29.3851 Y29.2662 F120.00
G01 X29.3641 Y29.2219 F120.00
G01 X29.3580 Y29.2071 F120.00
G01 X29.3389 Y29.1533 F120.00
G01 X29.3231 Y29.0903 F120.00
G01 X29.3136 Y29.0259 F120.00
G01 X29.3104 Y28.9647 F120.00
G00 Z2.0000
G00 X29.3130 Y29.0146
G01 F60.00
G01 Z-0.4000
G01 F120.00
G01 X29.3104 Y28.9647 F120.00
G01 X29.3102 Y28.9561 F120.00
G01 X29.2971 Y28.9168 F120.00
G01 X29.3102 Y28.9561 F120.00
G01 X29.3104 Y28.9647 F120.00
G00 X29.3104 Y28.9647
G01 F60.00
G01 Z-0.4193
G01 F120.00
G01 X29.3102 Y28.9561 F120.00
G01 X29.0255 Y28.1018 F120.00
G01 X29.0097 Y28.0806 F120.00
G01 X29.0030 Y28.0707 F120.00
G01 X28.9484 Y27.9797 F120.00
G01 X28.9429 Y27.9690 F120.00
G01 X28.8992 Y27.8767 F120.00
G01 X28.8948 Y27.8656 F120.00
G01 X28.8592 Y27.7656 F120.00
G01 X28.8315 Y27.6549 F120.00
G01 X28.8148 Y27.5420 F120.00
G01 X28.8092 Y27.4320 F120.00
G01 X28.8092 Y26.9230 F120.00
G01 X28.8148 Y26.8130 F120.00
G01 X28.8301 Y26.7080 F120.00
G01 X28.8332 Y26.6924 F120.00
G01 X28.8571 Y26.5971 F120.00
G01 X28.8604 Y26.5856 F120.00
G01 X28.8977 Y26.4820 F120.00
G01 X28.9465 Y26.3788 F120.00
G01 X29.0051 Y26.2810 F120.00
G01 X29.0731 Y26.1893 F120.00
G01 X29.1497 Y26.1047 F120.00
G01 X29.2343 Y26.0281 F120.00
G01 X29.3260 Y25.9601 F120.00
G01 X29.4238 Y25.9015 F120.00
G01 X29.5270 Y25.8527 F120.00
G01 X29.6344 Y25.8142 F120.00
G01 X29.7451 Y25.7865 F120.00
G01 X29.8580 Y25.7698 F120.00
G01 X29.9720 Y25.7642 F120.00
G01 X30.0860 Y25.7698 F120.00
G01 X30.1989 Y25.7865 F120.00
G01 X30.3019 Y25.8121 F120.00
G01 X30.3134 Y25.8154 F120.00
G01 X30.4170 Y25.8527 F120.00
G01 X30.5130 Y25.8979 F120.00
G01 X30.5271 Y25.9054 F120.00
G01 X30.6180 Y25.9601 F120.00
G01 X30.7034 Y26.0232 F120.00
G01 X30.7157 Y26.0333 F120.00
G01 X30.7943 Y26.1047 F120.00
G01 X30.8709 Y26.1893 F120.00
G01 X30.9389 Y26.2810 F120.00
G01 X30.9936 Y26.3719 F120.00
G01 X31.0011 Y26.3860 F120.00
G01 X31.0463 Y26.4820 F120.00
G01 X31.0823 Y26.5819 F120.00
G01 X31.0869 Y26.5971 F120.00
G01 X31.1125 Y26.7001 F120.00
G01 X31.1288 Y26.8091 F120.00
G01 X31.1298 Y26.8210 F120.00
G01 X31.1348 Y26.9270 F120.00
G01 X31.1348 Y27.4320 F120.00
G01 X31.1292 Y27.5420 F120.00
G01 X31.1139 Y27.6470 F120.00
G01 X31.1117 Y27.6588 F120.00
G01 X31.0848 Y27.7656 F120.00
G01 X31.0492 Y27.8656 F120.00
G01 X31.0448 Y27.8767 F120.00
G01 X31.0011 Y27.9690 F120.00
G01 X30.9956 Y27.9797 F120.00
G01 X30.9410 Y28.0707 F120.00
G01 X30.9343 Y28.0806 F120.00
G01 X30.9185 Y28.1018 F120.00
G01 X30.7016 Y28.7526 F120.00
G01 X32.0074 Y30.0583 F120.00
G01 X32.8806 Y30.3491 F120.00
G01 X32.9005 Y30.3501 F120.00
G01 X32.9123 Y30.3514 F120.00
G01 X33.0337 Y30.3694 F120.00
G01 X33.0493 Y30.3725 F120.00
G01 X33.1760 Y30.4045 F120.00
G01 X33.2990 Y30.4483 F120.00
G01 X33.3101 Y30.4527 F120.00
G01 X33.4247 Y30.5068 F120.00
G01 X33.4387 Y30.5143 F120.00
G01 X33.5507 Y30.5817 F120.00
G01 X33.6557 Y30.6593 F120.00
G01 X33.6680 Y30.6694 F120.00
G01 X33.7647 Y30.7573 F120.00
G01 X33.8578 Y30.8600 F120.00
G01 X33.9403 Y30.9713 F120.00
G01 X34.0077 Y31.0833 F120.00
G01 X34.0152 Y31.0973 F120.00
G01 X34.0676 Y31.2082 F120.00
G01 X34.0737 Y31.2230 F120.00
G01 X34.1175 Y31.3460 F120.00
G01 X34.1512 Y31.4805 F120.00
G01 X34.1715 Y31.6176 F120.00
G01 X34.1783 Y31.7560 F120.00
G01 X34.1715 Y31.8944 F120.00
G01 X34.1526 Y32.0237 F120.00
G01 X34.1495 Y32.0393 F120.00
G01 X34.1197 Y32.1583 F120.00
G01 X34.1150 Y32.1735 F120.00
G01 X34.0708 Y32.2965 F120.00
G01 X34.0116 Y32.4218 F120.00
G01 X33.9403 Y32.5407 F120.00
G01 X33.8578 Y32.6520 F120.00
G01 X33.7647 Y32.7547 F120.00
G01 X33.6620 Y32.8478 F120.00
G01 X33.5507 Y32.9303 F120.00
G01 X33.4318 Y33.0016 F120.00
G01 X33.3065 Y33.0608 F120.00
G01 X33.1760 Y33.1075 F120.00
G01 X33.0415 Y33.1412 F120.00
G01 X32.9044 Y33.1615 F120.00
G01 X32.7660 Y33.1683 F120.00
G01 X32.6276 Y33.1615 F120.00
G01 X32.4905 Y33.1412 F120.00
G01 X32.3560 Y33.1075 F120.00
G01 X32.2255 Y33.0608 F120.00
G01 X32.1002 Y33.0016 F120.00
G01 X31.9813 Y32.9303 F120.00
G01 X31.8700 Y32.8478 F120.00
G01 X31.7673 Y32.7547 F120.00
G01 X31.6794 Y32.6580 F120.00
G01 X31.6693 Y32.6457 F120.00
G01 X31.5917 Y32.5407 F120.00
G01 X31.5243 Y32.4287 F120.00
G01 X31.5168 Y32.4147 F120.00
G01 X31.4627 Y32.3001 F120.00
G01 X31.4583 Y32.2890 F120.00
G01 X31.4145 Y32.1660 F120.00
G01 X31.3825 Y32.0393 F120.00
G01 X31.3794 Y32.0237 F120.00
G01 X31.3614 Y31.9023 F120.00
G01 X31.3601 Y31.8905 F120.00
G01 X31.3591 Y31.8706 F120.00
G01 X31.0663 Y30.9914 F120.00
G01 X29.5045 Y29.4295 F120.00
G01 X29.4634 Y29.3844 F120.00
G01 X29.4559 Y29.3751 F120.00
G01 X29.4221 Y29.3291 F120.00
G01 X29.3926 Y29.2803 F120.00
G01 X29.3851 Y29.2662 F120.00
G01 X29.3641 Y29.2219 F120.00
G01 X29.3580 Y29.2071 F120.00
G01 X29.3389 Y29.1533 F120.00
G01 X29.3231 Y29.0903 F120.00
G01 X29.3136 Y29.0259 F120.00
G01 X29.3104 Y28.9647 F120.00
G00 Z2.0000
G00 X29.3130 Y29.0146
G01 F60.00
G01 Z-0.4193
G01 F120.00
G01 X29.3104 Y28.9647 F120.00
G01 X29.3102 Y28.9561 F120.00
G01 X29.2971 Y28.9168 F120.00
G01 X29.3102 Y28.9561 F120.00
G01 X29.3104 Y28.9647 F120.00
G00 Z2.0000
G00 X28.9712 Y31.5100
G01 F60.00
G01 Z-0.4000
G01 F120.00
G01 X28.9645 Y31.6404 F120.00
G01 X28.9442 Y31.7775 F120.00
G01 X28.9105 Y31.9120 F120.00
G01 X28.8638 Y32.0425 F120.00
G01 X28.8046 Y32.1678 F120.00
G01 X28.7333 Y32.2867 F120.00
G01 X28.6508 Y32.3980 F120.00
G01 X28.5577 Y32.5007 F120.00
G01 X28.4550 Y32.5938 F120.00
G01 X28.3437 Y32.6763 F120.00
G01 X28.2248 Y32.7476 F120.00
G01 X28.0995 Y32.8068 F120.00
G01 X27.9690 Y32.8535 F120.00
G01 X27.8345 Y32.8872 F120.00
G01 X27.6974 Y32.9075 F120.00
G01 X27.5590 Y32.9143 F120.00
G01 X27.4206 Y32.9075 F120.00
G01 X27.2835 Y32.8872 F120.00
G01 X27.1490 Y32.8535 F120.00
G01 X27.0185 Y32.8068 F120.00
G01 X26.8932 Y32.7476 F120.00
G01 X26.7743 Y32.6763 F120.00
G01 X26.6630 Y32.5938 F120.00
G01 X26.5603 Y32.5007 F120.00
G01 X26.4672 Y32.3980 F120.00
G01 X26.3847 Y32.2867 F120.00
G01 X26.3134 Y32.1678 F120.00
G01 X26.2542 Y32.0425 F120.00
G01 X26.2075 Y31.9120 F120.00
G01 X26.1738 Y31.7775 F120.00
G01 X26.1535 Y31.6404 F120.00
G01 X26.1467 Y31.5020 F120.00
G01 X26.1535 Y31.3636 F120.00
G01 X26.1738 Y31.2265 F120.00
G01 X26.2075 Y31.0920 F120.00
G01 X26.2542 Y30.9615 F120.00
G01 X26.3134 Y30.8362 F120.00
G01 X26.3847 Y30.7173 F120.00
G01 X26.4672 Y30.6060 F120.00
G01 X26.5603 Y30.5033 F120.00
G01 X26.6630 Y30.4102 F120.00
G01 X26.7743 Y30.3277 F120.00
G01 X26.8932 Y30.2564 F120.00
G01 X27.0185 Y30.1972 F120.00
G01 X27.1490 Y30.1505 F120.00
G01 X27.2835 Y30.1168 F120.00
G01 X27.4206 Y30.0965 F120.00
G01 X27.5590 Y30.0897 F120.00
G01 X27.6974 Y30.0965 F120.00
G01 X27.8345 Y30.1168 F120.00
G01 X27.9690 Y30.1505 F120.00
G01 X28.0995 Y30.1972 F120.00
G01 X28.2248 Y30.2564 F120.00
G01 X28.3437 Y30.3277 F120.00
G01 X28.4550 Y30.4102 F120.00
G01 X28.5577 Y30.5033 F120.00
G01 X28.6508 Y30.6060 F120.00
G01 X28.7333 Y30.7173 F120.00
G01 X28.8046 Y30.8362 F120.00
G01 X28.8638 Y30.9615 F120.00
G01 X28.9105 Y31.0920 F120.00
G01 X28.9442 Y31.2265 F120.00
G01 X28.9645 Y31.3636 F120.00
G01 X28.9712 Y31.4940 F120.00
G01 X28.9712 Y31.5100 F120.00
G00 Z2.0000
G00 X28.9694 Y31.4600
G01 F60.00
G01 Z-0.4000
G01 F120.00
G01 X28.9712 Y31.4940 F120.00
G01 X28.9712 Y31.5100 F120.00
G01 X28.9686 Y31.5599 F120.00
G01 X28.9712 Y31.5100 F120.00
G00 X28.9712 Y31.5100
G01 F60.00
G01 Z-0.4193
G01 F120.00
G01 X28.9645 Y31.6404 F120.00
G01 X28.9442 Y31.7775 F120.00
G01 X28.9105 Y31.9120 F120.00
G01 X28.8638 Y32.0425 F120.00
G01 X28.8046 Y32.1678 F120.00
G01 X28.7333 Y32.2867 F120.00
G01 X28.6508 Y32.3980 F120.00
G01 X28.5577 Y32.5007 F120.00
G01 X28.4550 Y32.5938 F120.00
G01 X28.3437 Y32.6763 F120.00
G01 X28.2248 Y32.7476 F120.00
G01 X28.0995 Y32.8068 F120.00
G01 X27.9690 Y32.8535 F120.00
G01 X27.8345 Y32.8872 F120.00
G01 X27.6974 Y32.9075 F120.00
G01 X27.5590 Y32.9143 F120.00
G01 X27.4206 Y32.9075 F120.00
G01 X27.2835 Y32.8872 F120.00
G01 X27.1490 Y32.8535 F120.00
G01 X27.0185 Y32.8068 F120.00
G01 X26.8932 Y32.7476 F120.00
G01 X26.7743 Y32.6763 F120.00
G01 X26.6630 Y32.5938 F120.00
G01 X26.5603 Y32.5007 F120.00
G01 X26.4672 Y32.3980 F120.00
G01 X26.3847 Y32.2867 F120.00
G01 X26.3134 Y32.1678 F120.00
G01 X26.2542 Y32.0425 F120.00
G01 X26.2075 Y31.9120 F120.00
G01 X26.1738 Y31.7775 F120.00
G01 X26.1535 Y31.6404 F120.00
G01 X26.1467 Y31.5020 F120.00
G01 X26.1535 Y31.3636 F120.00
G01 X26.1738 Y31.2265 F120.00
G01 X26.2075 Y31.0920 F120.00
G01 X26.2542 Y30.9615 F120.00
G01 X26.3134 Y30.8362 F120.00
G01 X26.3847 Y30.7173 F120.00
G01 X26.4672 Y30.6060 F120.00
G01 X26.5603 Y30.5033 F120.00
G01 X26.6630 Y30.4102 F120.00
G01 X26.7743 Y30.3277 F120.00
G01 X26.8932 Y30.2564 F120.00
G01 X27.0185 Y30.1972 F120.00
G01 X27.1490 Y30.1505 F120.00
G01 X27.2835 Y30.1168 F120.00
G01 X27.4206 Y30.0965 F120.00
G01 X27.5590 Y30.0897 F120.00
G01 X27.6974 Y30.0965 F120.00
G01 X27.8345 Y30.1168 F120.00
G01 X27.9690 Y30.1505 F120.00
G01 X28.0995 Y30.1972 F120.00
G01 X28.2248 Y30.2564 F120.00
G01 X28.3437 Y30.3277 F120.00
G01 X28.4550 Y30.4102 F120.00
G01 X28.5577 Y30.5033 F120.00
G01 X28.6508 Y30.6060 F120.00
G01 X28.7333 Y30.7173 F120.00
G01 X28.8046 Y30.8362 F120.00
G01 X28.8638 Y30.9615 F120.00
G01 X28.9105 Y31.0920 F120.00
G01 X28.9442 Y31.2265 F120.00
G01 X28.9645 Y31.3636 F120.00
G01 X28.9712 Y31.4940 F120.00
G01 X28.9712 Y31.5100 F120.00
G00 Z2.0000
G00 X28.9694 Y31.4600
G01 F60.00
G01 Z-0.4193
G01 F120.00
G01 X28.9712 Y31.4940 F120.00
G01 X28.9712 Y31.5100 F120.00
G01 X28.9686 Y31.5599 F120.00
G01 X28.9712 Y31.5100 F120.00
G00 Z2.0000
G00 X26.4837 Y39.5165
G01 F60.00
G01 Z-0.4000
G01 F120.00
G01 X26.4698 Y39.5010 F120.00
G01 X26.4648 Y39.4949 F120.00
G01 X26.3847 Y39.3867 F120.00
G01 X26.3134 Y39.2678 F120.00
G01 X26.2542 Y39.1425 F120.00
G01 X26.2075 Y39.0120 F120.00
G01 X26.1738 Y38.8775 F120.00
G01 X26.1535 Y38.7404 F120.00
G01 X26.1467 Y38.6020 F120.00
G01 X26.1535 Y38.4636 F120.00
G01 X26.1738 Y38.3265 F120.00
G01 X26.2075 Y38.1920 F120.00
G01 X26.2542 Y38.0615 F120.00
G01 X26.3134 Y37.9362 F120.00
G01 X26.3847 Y37.8173 F120.00
G01 X26.4672 Y37.7060 F120.00
G01 X26.5603 Y37.6033 F120.00
G01 X26.6630 Y37.5102 F120.00
G01 X26.7743 Y37.4277 F120.00
G01 X26.8932 Y37.3564 F120.00
G01 X27.0185 Y37.2972 F120.00
G01 X27.1490 Y37.2505 F120.00
G01 X27.2835 Y37.2168 F120.00
G01 X27.4206 Y37.1965 F120.00
G01 X27.5590 Y37.1897 F120.00
G01 X27.6974 Y37.1965 F120.00
G01 X27.8345 Y37.2168 F120.00
G01 X27.9690 Y37.2505 F120.00
G01 X28.0995 Y37.2972 F120.00
G01 X28.2248 Y37.3564 F120.00
G01 X28.3437 Y37.4277 F120.00
G01 X28.4550 Y37.5102 F120.00
G01 X28.5577 Y37.6033 F120.00
G01 X28.6508 Y37.7060 F120.00
G01 X28.7333 Y37.8173 F120.00
G01 X28.8046 Y37.9362 F120.00
G01 X28.8638 Y38.0615 F120.00
G01 X28.9080 Y38.1845 F120.00
G01 X28.9127 Y38.1997 F120.00
G01 X28.9425 Y38.3187 F120.00
G01 X28.9456 Y38.3343 F120.00
G01 X28.9645 Y38.4636 F120.00
G01 X28.9712 Y38.5940 F120.00
G01 X28.9712 Y38.6100 F120.00
G01 X28.9645 Y38.7404 F120.00
G01 X28.9456 Y38.8697 F120.00
G01 X28.9425 Y38.8853 F120.00
G01 X28.9127 Y39.0043 F120.00
G01 X28.9080 Y39.0195 F120.00
G01 X28.8638 Y39.1425 F120.00
G01 X28.8082 Y39.2607 F120.00
G01 X28.8007 Y39.2747 F120.00
G01 X28.7333 Y39.3867 F120.00
G01 X28.6535 Y39.4945 F120.00
G01 X28.6317 Y39.5197 F120.00
G01 X28.2216 Y40.3408 F120.00
G01 X28.2216 Y40.3936 F120.00
G01 X28.4523 Y41.0396 F120.00
G01 X28.4624 Y41.0519 F120.00
G01 X28.5255 Y41.1372 F120.00
G01 X28.5841 Y41.2351 F120.00
G01 X28.6329 Y41.3382 F120.00
G01 X28.6701 Y41.4418 F120.00
G01 X28.6734 Y41.4533 F120.00
G01 X28.6990 Y41.5562 F120.00
G01 X28.7158 Y41.6691 F120.00
G01 X28.7213 Y41.7830 F120.00
G01 X28.7158 Y41.8969 F120.00
G01 X28.7004 Y42.0019 F120.00
G01 X28.6973 Y42.0175 F120.00
G01 X28.6713 Y42.1204 F120.00
G01 X28.6357 Y42.2204 F120.00
G01 X28.6296 Y42.2351 F120.00
G01 X28.5841 Y42.3309 F120.00
G01 X28.5255 Y42.4288 F120.00
G01 X28.4624 Y42.5141 F120.00
G01 X28.4523 Y42.5264 F120.00
G01 X28.3809 Y42.6049 F120.00
G01 X28.3024 Y42.6763 F120.00
G01 X28.2901 Y42.6864 F120.00
G01 X28.2048 Y42.7495 F120.00
G01 X28.1139 Y42.8042 F120.00
G01 X28.1034 Y42.8099 F120.00
G01 X28.0038 Y42.8569 F120.00
G01 X27.8964 Y42.8953 F120.00
G01 X27.7858 Y42.9230 F120.00
G01 X27.6729 Y42.9398 F120.00
G01 X27.5590 Y42.9453 F120.00
G01 X27.4451 Y42.9398 F120.00
G01 X27.3322 Y42.9230 F120.00
G01 X27.2216 Y42.8953 F120.00
G01 X27.1142 Y42.8569 F120.00
G01 X27.0111 Y42.8081 F120.00
G01 X26.9132 Y42.7495 F120.00
G01 X26.8216 Y42.6815 F120.00
G01 X26.7371 Y42.6049 F120.00
G01 X26.6605 Y42.5204 F120.00
G01 X26.5925 Y42.4288 F120.00
G01 X26.5378 Y42.3379 F120.00
G01 X26.5321 Y42.3274 F120.00
G01 X26.4851 Y42.2278 F120.00
G01 X26.4467 Y42.1204 F120.00
G01 X26.4190 Y42.0098 F120.00
G01 X26.4032 Y41.9048 F120.00
G01 X26.4017 Y41.8890 F120.00
G01 X26.3968 Y41.7910 F120.00
G01 X26.3968 Y41.7750 F120.00
G01 X26.4022 Y41.6691 F120.00
G01 X26.4183 Y41.5602 F120.00
G01 X26.4207 Y41.5485 F120.00
G01 X26.4446 Y41.4533 F120.00
G01 X26.4492 Y41.4380 F120.00
G01 X26.4851 Y41.3382 F120.00
G01 X26.5303 Y41.2422 F120.00
G01 X26.5378 Y41.2281 F120.00
G01 X26.5925 Y41.1372 F120.00
G01 X26.6556 Y41.0519 F120.00
G01 X26.6657 Y41.0396 F120.00
G01 X26.8964 Y40.3936 F120.00
G01 X26.8964 Y40.3409 F120.00
G01 X26.4837 Y39.5165 F120.00
G00 Z2.0000
G00 X26.5061 Y39.5612
G01 F60.00
G01 Z-0.4000
G01 F120.00
G01 X26.4837 Y39.5165 F120.00
G01 X26.4698 Y39.5010 F120.00
G01 X26.4648 Y39.4949 F120.00
G01 X26.4521 Y39.4778 F120.00
G01 X26.4648 Y39.4949 F120.00
G01 X26.4698 Y39.5010 F120.00
G01 X26.4837 Y39.5165 F120.00
G00 X26.4837 Y39.5165
G01 F60.00
G01 Z-0.4193
G01 F120.00
G01 X26.4698 Y39.5010 F120.00
G01 X26.4648 Y39.4949 F120.00
G01 X26.3847 Y39.3867 F120.00
G01 X26.3134 Y39.2678 F120.00
G01 X26.2542 Y39.1425 F120.00
G01 X26.2075 Y39.0120 F120.00
G01 X26.1738 Y38.8775 F120.00
G01 X26.1535 Y38.7404 F120.00
G01 X26.1467 Y38.6020 F120.00
G01 X26.1535 Y38.4636 F120.00
G01 X26.1738 Y38.3265 F120.00
G01 X26.2075 Y38.1920 F120.00
G01 X26.2542 Y38.0615 F120.00
G01 X26.3134 Y37.9362 F120.00
G01 X26.3847 Y37.8173 F120.00
G01 X26.4672 Y37.7060 F120.00
G01 X26.5603 Y37.6033 F120.00
G01 X26.6630 Y37.5102 F120.00
G01 X26.7743 Y37.4277 F120.00
G01 X26.8932 Y37.3564 F120.00
G01 X27.0185 Y37.2972 F120.00
G01 X27.1490 Y37.2505 F120.00
G01 X27.2835 Y37.2168 F120.00
G01 X27.4206 Y37.1965 F120.00
G01 X27.5590 Y37.1897 F120.00
G01 X27.6974 Y37.1965 F120.00
G01 X27.8345 Y37.2168 F120.00
G01 X27.9690 Y37.2505 F120.00
G01 X28.0995 Y37.2972 F120.00
G01 X28.2248 Y37.3564 F120.00
G01 X28.3437 Y37.4277 F120.00
G01 X28.4550 Y37.5102 F120.00
G01 X28.5577 Y37.6033 F120.00
G01 X28.6508 Y37.7060 F120.00
G01 X28.7333 Y37.8173 F120.00
G01 X28.8046 Y37.9362 F120.00
G01 X28.8638 Y38.0615 F120.00
G01 X28.9080 Y38.1845 F120.00
G01 X28.9127 Y38.1997 F120.00
G01 X28.9425 Y38.3187 F120.00
G01 X28.9456 Y38.3343 F120.00
G01 X28.9645 Y38.4636 F120.00
G01 X28.9712 Y38.5940 F120.00
G01 X28.9712 Y38.6100 F120.00
G01 X28.9645 Y38.7404 F120.00
G01 X28.9456 Y38.8697 F120.00
G01 X28.9425 Y38.8853 F120.00
G01 X28.9127 Y39.0043 F120.00
G01 X28.9080 Y39.0195 F120.00
G01 X28.8638 Y39.1425 F120.00
G01 X28.8082 Y39.2607 F120.00
G01 X28.8007 Y39.2747 F120.00
G01 X28.7333 Y39.3867 F120.00
G01 X28.6535 Y39.4945 F120.00
G01 X28.6317 Y39.5197 F120.00
G01 X28.2216 Y40.3408 F120.00
G01 X28.2216 Y40.3936 F120.00
G01 X28.4523 Y41.0396 F120.00
G01 X28.4624 Y41.0519 F120.00
G01 X28.5255 Y41.1372 F120.00
G01 X28.5841 Y41.2351 F120.00
G01 X28.6329 Y41.3382 F120.00
G01 X28.6701 Y41.4418 F120.00
G01 X28.6734 Y41.4533 F120.00
G01 X28.6990 Y41.5562 F120.00
G01 X28.7158 Y41.6691 F120.00
G01 X28.7213 Y41.7830 F120.00
G01 X28.7158 Y41.8969 F120.00
G01 X28.7004 Y42.0019 F120.00
G01 X28.6973 Y42.0175 F120.00
G01 X28.6713 Y42.1204 F120.00
G01 X28.6357 Y42.2204 F120.00
G01 X28.6296 Y42.2351 F120.00
G01 X28.5841 Y42.3309 F120.00
G01 X28.5255 Y42.4288 F120.00
G01 X28.4624 Y42.5141 F120.00
G01 X28.4523 Y42.5264 F120.00
G01 X28.3809 Y42.6049 F120.00
G01 X28.3024 Y42.6763 F120.00
G01 X28.2901 Y42.6864 F120.00
G01 X28.2048 Y42.7495 F120.00
G01 X28.1139 Y42.8042 F120.00
G01 X28.1034 Y42.8099 F120.00
G01 X28.0038 Y42.8569 F120.00
G01 X27.8964 Y42.8953 F120.00
G01 X27.7858 Y42.9230 F120.00
G01 X27.6729 Y42.9398 F120.00
G01 X27.5590 Y42.9453 F120.00
G01 X27.4451 Y42.9398 F120.00
G01 X27.3322 Y42.9230 F120.00
G01 X27.2216 Y42.8953 F120.00
G01 X27.1142 Y42.8569 F120.00
G01 X27.0111 Y42.8081 F120.00
G01 X26.9132 Y42.7495 F120.00
G01 X26.8216 Y42.6815 F120.00
G01 X26.7371 Y42.6049 F120.00
G01 X26.6605 Y42.5204 F120.00
G01 X26.5925 Y42.4288 F120.00
G01 X26.5378 Y42.3379 F120.00
G01 X26.5321 Y42.3274 F120.00
G01 X26.4851 Y42.2278 F120.00
G01 X26.4467 Y42.1204 F120.00
G01 X26.4190 Y42.0098 F120.00
G01 X26.4032 Y41.9048 F120.00
G01 X26.4017 Y41.8890 F120.00
G01 X26.3968 Y41.7910 F120.00
G01 X26.3968 Y41.7750 F120.00
G01 X26.4022 Y41.6691 F120.00
G01 X26.4183 Y41.5602 F120.00
G01 X26.4207 Y41.5485 F120.00
G01 X26.4446 Y41.4533 F120.00
G01 X26.4492 Y41.4380 F120.00
G01 X26.4851 Y41.3382 F120.00
G01 X26.5303 Y41.2422 F120.00
G01 X26.5378 Y41.2281 F120.00
G01 X26.5925 Y41.1372 F120.00
G01 X26.6556 Y41.0519 F120.00
G01 X26.6657 Y41.0396 F120.00
G01 X26.8964 Y40.3936 F120.00
G01 X26.8964 Y40.3409 F120.00
G01 X26.4837 Y39.5165 F120.00
G00 Z2.0000
G00 X26.5061 Y39.5612
G01 F60.00
G01 Z-0.4193
G01 F120.00
G01 X26.4837 Y39.5165 F120.00
G01 X26.4698 Y39.5010 F120.00
G01 X26.4648 Y39.4949 F120.00
G01 X26.4521 Y39.4778 F120.00
G01 X26.4648 Y39.4949 F120.00
G01 X26.4698 Y39.5010 F120.00
G01 X26.4837 Y39.5165 F120.00
G00 Z2.0000
G00 X26.1812 Y41.7910
G01 F60.00
G01 Z-0.4000
G01 F120.00
G01 X26.1758 Y41.8969 F120.00
G01 X26.1590 Y42.0098 F120.00
G01 X26.1313 Y42.1204 F120.00
G01 X26.0929 Y42.2278 F120.00
G01 X26.0441 Y42.3309 F120.00
G01 X25.9855 Y42.4288 F120.00
G01 X25.9175 Y42.5204 F120.00
G01 X25.8409 Y42.6049 F120.00
G01 X25.7564 Y42.6815 F120.00
G01 X25.6648 Y42.7495 F120.00
G01 X25.5669 Y42.8081 F120.00
G01 X25.4638 Y42.8569 F120.00
G01 X25.3564 Y42.8953 F120.00
G01 X25.2458 Y42.9230 F120.00
G01 X25.1329 Y42.9398 F120.00
G01 X25.0190 Y42.9453 F120.00
G01 X24.9051 Y42.9398 F120.00
G01 X24.7922 Y42.9230 F120.00
G01 X24.6816 Y42.8953 F120.00
G01 X24.5742 Y42.8569 F120.00
G01 X24.4711 Y42.8081 F120.00
G01 X24.3732 Y42.7495 F120.00
G01 X24.2816 Y42.6815 F120.00
G01 X24.1971 Y42.6049 F120.00
G01 X24.1205 Y42.5204 F120.00
G01 X24.0525 Y42.4288 F120.00
G01 X23.9939 Y42.3309 F120.00
G01 X23.9451 Y42.2278 F120.00
G01 X23.9067 Y42.1204 F120.00
G01 X23.8790 Y42.0098 F120.00
G01 X23.8622 Y41.8969 F120.00
G01 X23.8567 Y41.7830 F120.00
G01 X23.8622 Y41.6691 F120.00
G01 X23.8790 Y41.5562 F120.00
G01 X23.9067 Y41.4456 F120.00
G01 X23.9451 Y41.3382 F120.00
G01 X23.9939 Y41.2351 F120.00
G01 X24.0525 Y41.1372 F120.00
G01 X24.1205 Y41.0456 F120.00
G01 X24.1971 Y40.9611 F120.00
G01 X24.2816 Y40.8845 F120.00
G01 X24.3732 Y40.8165 F120.00
G01 X24.4711 Y40.7579 F120.00
G01 X24.5742 Y40.7091 F120.00
G01 X24.6816 Y40.6707 F120.00
G01 X24.7922 Y40.6430 F120.00
G01 X24.9051 Y40.6262 F120.00
G01 X25.0190 Y40.6207 F120.00
G01 X25.1329 Y40.6262 F120.00
G01 X25.2458 Y40.6430 F120.00
G01 X25.3564 Y40.6707 F120.00
G01 X25.4638 Y40.7091 F120.00
G01 X25.5669 Y40.7579 F120.00
G01 X25.6648 Y40.8165 F120.00
G01 X25.7564 Y40.8845 F120.00
G01 X25.8409 Y40.9611 F120.00
G01 X25.9175 Y41.0456 F120.00
G01 X25.9855 Y41.1372 F120.00
G01 X26.0441 Y41.2351 F120.00
G01 X26.0929 Y41.3382 F120.00
G01 X26.1313 Y41.4456 F120.00
G01 X26.1590 Y41.5562 F120.00
G01 X26.1758 Y41.6691 F120.00
G01 X26.1812 Y41.7750 F120.00
G01 X26.1812 Y41.7910 F120.00
G00 Z2.0000
G00 X26.1794 Y41.7410
G01 F60.00
G01 Z-0.4000
G01 F120.00
G01 X26.1812 Y41.7750 F120.00
G01 X26.1812 Y41.7910 F120.00
G01 X26.1786 Y41.8409 F120.00
G01 X26.1812 Y41.7910 F120.00
G00 X26.1812 Y41.7910
G01 F60.00
G01 Z-0.4193
G01 F120.00
G01 X26.1758 Y41.8969 F120.00
G01 X26.1590 Y42.0098 F120.00
G01 X26.1313 Y42.1204 F120.00
G01 X26.0929 Y42.2278 F120.00
G01 X26.0441 Y42.3309 F120.00
G01 X25.9855 Y42.4288 F120.00
G01 X25.9175 Y42.5204 F120.00
G01 X25.8409 Y42.6049 F120.00
G01 X25.7564 Y42.6815 F120.00
G01 X25.6648 Y42.7495 F120.00
G01 X25.5669 Y42.8081 F120.00
G01 X25.4638 Y42.8569 F120.00
G01 X25.3564 Y42.8953 F120.00
G01 X25.2458 Y42.9230 F120.00
G01 X25.1329 Y42.9398 F120.00
G01 X25.0190 Y42.9453 F120.00
G01 X24.9051 Y42.9398 F120.00
G01 X24.7922 Y42.9230 F120.00
G01 X24.6816 Y42.8953 F120.00
G01 X24.5742 Y42.8569 F120.00
G01 X24.4711 Y42.8081 F120.00
G01 X24.3732 Y42.7495 F120.00
G01 X24.2816 Y42.6815 F120.00
G01 X24.1971 Y42.6049 F120.00
G01 X24.1205 Y42.5204 F120.00
G01 X24.0525 Y42.4288 F120.00
G01 X23.9939 Y42.3309 F120.00
G01 X23.9451 Y42.2278 F120.00
G01 X23.9067 Y42.1204 F120.00
G01 X23.8790 Y42.0098 F120.00
G01 X23.8622 Y41.8969 F120.00
G01 X23.8567 Y41.7830 F120.00
G01 X23.8622 Y41.6691 F120.00
G01 X23.8790 Y41.5562 F120.00
G01 X23.9067 Y41.4456 F120.00
G01 X23.9451 Y41.3382 F120.00
G01 X23.9939 Y41.2351 F120.00
G01 X24.0525 Y41.1372 F120.00
G01 X24.1205 Y41.0456 F120.00
G01 X24.1971 Y40.9611 F120.00
G01 X24.2816 Y40.8845 F120.00
G01 X24.3732 Y40.8165 F120.00
G01 X24.4711 Y40.7579 F120.00
G01 X24.5742 Y40.7091 F120.00
G01 X24.6816 Y40.6707 F120.00
G01 X24.7922 Y40.6430 F120.00
G01 X24.9051 Y40.6262 F120.00
G01 X25.0190 Y40.6207 F120.00
G01 X25.1329 Y40.6262 F120.00
G01 X25.2458 Y40.6430 F120.00
G01 X25.3564 Y40.6707 F120.00
G01 X25.4638 Y40.7091 F120.00
G01 X25.5669 Y40.7579 F120.00
G01 X25.6648 Y40.8165 F120.00
G01 X25.7564 Y40.8845 F120.00
G01 X25.8409 Y40.9611 F120.00
G01 X25.9175 Y41.0456 F120.00
G01 X25.9855 Y41.1372 F120.00
G01 X26.0441 Y41.2351 F120.00
G01 X26.0929 Y41.3382 F120.00
G01 X26.1313 Y41.4456 F120.00
G01 X26.1590 Y41.5562 F120.00
G01 X26.1758 Y41.6691 F120.00
G01 X26.1812 Y41.7750 F120.00
G01 X26.1812 Y41.7910 F120.00
G00 Z2.0000
G00 X26.1794 Y41.7410
G01 F60.00
G01 Z-0.4193
G01 F120.00
G01 X26.1812 Y41.7750 F120.00
G01 X26.1812 Y41.7910 F120.00
G01 X26.1786 Y41.8409 F120.00
G01 X26.1812 Y41.7910 F120.00
G00 Z2.0000
G00 X23.6412 Y41.7910
G01 F60.00
G01 Z-0.4000
G01 F120.00
G01 X23.6358 Y41.8969 F120.00
G01 X23.6190 Y42.0098 F120.00
G01 X23.5913 Y42.1204 F120.00
G01 X23.5529 Y42.2278 F120.00
G01 X23.5041 Y42.3309 F120.00
G01 X23.4455 Y42.4288 F120.00
G01 X23.3775 Y42.5204 F120.00
G01 X23.3009 Y42.6049 F120.00
G01 X23.2164 Y42.6815 F120.00
G01 X23.1248 Y42.7495 F120.00
G01 X23.0269 Y42.8081 F120.00
G01 X22.9238 Y42.8569 F120.00
G01 X22.8164 Y42.8953 F120.00
G01 X22.7058 Y42.9230 F120.00
G01 X22.5929 Y42.9398 F120.00
G01 X22.4790 Y42.9453 F120.00
G01 X22.3651 Y42.9398 F120.00
G01 X22.2522 Y42.9230 F120.00
G01 X22.1416 Y42.8953 F120.00
G01 X22.0342 Y42.8569 F120.00
G01 X21.9311 Y42.8081 F120.00
G01 X21.8332 Y42.7495 F120.00
G01 X21.7416 Y42.6815 F120.00
G01 X21.6571 Y42.6049 F120.00
G01 X21.5805 Y42.5204 F120.00
G01 X21.5125 Y42.4288 F120.00
G01 X21.4539 Y42.3309 F120.00
G01 X21.4051 Y42.2278 F120.00
G01 X21.3667 Y42.1204 F120.00
G01 X21.3390 Y42.0098 F120.00
G01 X21.3222 Y41.8969 F120.00
G01 X21.3167 Y41.7830 F120.00
G01 X21.3222 Y41.6691 F120.00
G01 X21.3390 Y41.5562 F120.00
G01 X21.3667 Y41.4456 F120.00
G01 X21.4051 Y41.3382 F120.00
G01 X21.4539 Y41.2351 F120.00
G01 X21.5125 Y41.1372 F120.00
G01 X21.5805 Y41.0456 F120.00
G01 X21.6571 Y40.9611 F120.00
G01 X21.7416 Y40.8845 F120.00
G01 X21.8332 Y40.8165 F120.00
G01 X21.9311 Y40.7579 F120.00
G01 X22.0342 Y40.7091 F120.00
G01 X22.1416 Y40.6707 F120.00
G01 X22.2522 Y40.6430 F120.00
G01 X22.3651 Y40.6262 F120.00
G01 X22.4790 Y40.6207 F120.00
G01 X22.5929 Y40.6262 F120.00
G01 X22.7058 Y40.6430 F120.00
G01 X22.8164 Y40.6707 F120.00
G01 X22.9238 Y40.7091 F120.00
G01 X23.0269 Y40.7579 F120.00
G01 X23.1248 Y40.8165 F120.00
G01 X23.2164 Y40.8845 F120.00
G01 X23.3009 Y40.9611 F120.00
G01 X23.3775 Y41.0456 F120.00
G01 X23.4455 Y41.1372 F120.00
G01 X23.5041 Y41.2351 F120.00
G01 X23.5529 Y41.3382 F120.00
G01 X23.5913 Y41.4456 F120.00
G01 X23.6190 Y41.5562 F120.00
G01 X23.6358 Y41.6691 F120.00
G01 X23.6412 Y41.7750 F120.00
G01 X23.6412 Y41.7910 F120.00
G00 Z2.0000
G00 X23.6394 Y41.7410
G01 F60.00
G01 Z-0.4000
G01 F120.00
G01 X23.6412 Y41.7750 F120.00
G01 X23.6412 Y41.7910 F120.00
G01 X23.6386 Y41.8409 F120.00
G01 X23.6412 Y41.7910 F120.00
G00 X23.6412 Y41.7910
G01 F60.00
G01 Z-0.4193
G01 F120.00
G01 X23.6358 Y41.8969 F120.00
G01 X23.6190 Y42.0098 F120.00
G01 X23.5913 Y42.1204 F120.00
G01 X23.5529 Y42.2278 F120.00
G01 X23.5041 Y42.3309 F120.00
G01 X23.4455 Y42.4288 F120.00
G01 X23.3775 Y42.5204 F120.00
G01 X23.3009 Y42.6049 F120.00
G01 X23.2164 Y42.6815 F120.00
G01 X23.1248 Y42.7495 F120.00
G01 X23.0269 Y42.8081 F120.00
G01 X22.9238 Y42.8569 F120.00
G01 X22.8164 Y42.8953 F120.00
G01 X22.7058 Y42.9230 F120.00
G01 X22.5929 Y42.9398 F120.00
G01 X22.4790 Y42.9453 F120.00
G01 X22.3651 Y42.9398 F120.00
G01 X22.2522 Y42.9230 F120.00
G01 X22.1416 Y42.8953 F120.00
G01 X22.0342 Y42.8569 F120.00
G01 X21.9311 Y42.8081 F120.00
G01 X21.8332 Y42.7495 F120.00
G01 X21.7416 Y42.6815 F120.00
G01 X21.6571 Y42.6049 F120.00
G01 X21.5805 Y42.5204 F120.00
G01 X21.5125 Y42.4288 F120.00
G01 X21.4539 Y42.3309 F120.00
G01 X21.4051 Y42.2278 F120.00
G01 X21.3667 Y42.1204 F120.00
G01 X21.3390 Y42.0098 F120.00
G01 X21.3222 Y41.8969 F120.00
G01 X21.3167 Y41.7830 F120.00
G01 X21.3222 Y41.6691 F120.00
G01 X21.3390 Y41.5562 F120.00
G01 X21.3667 Y41.4456 F120.00
G01 X21.4051 Y41.3382 F120.00
G01 X21.4539 Y41.2351 F120.00
G01 X21.5125 Y41.1372 F120.00
G01 X21.5805 Y41.0456 F120.00
G01 X21.6571 Y40.9611 F120.00
G01 X21.7416 Y40.8845 F120.00
G01 X21.8332 Y40.8165 F120.00
G01 X21.9311 Y40.7579 F120.00
G01 X22.0342 Y40.7091 F120.00
G01 X22.1416 Y40.6707 F120.00
G01 X22.2522 Y40.6430 F120.00
G01 X22.3651 Y40.6262 F120.00
G01 X22.4790 Y40.6207 F120.00
G01 X22.5929 Y40.6262 F120.00
G01 X22.7058 Y40.6430 F120.00
G01 X22.8164 Y40.6707 F120.00
G01 X22.9238 Y40.7091 F120.00
G01 X23.0269 Y40.7579 F120.00
G01 X23.1248 Y40.8165 F120.00
G01 X23.2164 Y40.8845 F120.00
G01 X23.3009 Y40.9611 F120.00
G01 X23.3775 Y41.0456 F120.00
G01 X23.4455 Y41.1372 F120.00
G01 X23.5041 Y41.2351 F120.00
G01 X23.5529 Y41.3382 F120.00
G01 X23.5913 Y41.4456 F120.00
G01 X23.6190 Y41.5562 F120.00
G01 X23.6358 Y41.6691 F120.00
G01 X23.6412 Y41.7750 F120.00
G01 X23.6412 Y41.7910 F120.00
G00 Z2.0000
